!!!COM: muz.: TKk
!!!OTL: Miłość potężna jest jak śmierć
**kern	**dynam	**kern	**dynam	**kern	**dynam	**kern	**dynam	**kern	**dynam	**kern	**kern	**text	**kern	**kern	**dynam	**kern	**dynam	**kern	**dynam	**kern	**dynam	**kern	**dynam
*part12	*part12	*part11	*part11	*part10	*part10	*part9	*part9	*part8	*part8	*part7	*part6	*part6	*part5	*part5	*part5	*part4	*part4	*part3	*part3	*part2	*part2	*part1	*part1
*staff13	*	*staff12	*	*staff11	*	*staff10	*	*staff9	*	*staff8	*staff7	*staff7	*staff6	*staff5	*	*staff4	*	*staff3	*	*staff2	*	*staff1	*
*I"Contrabbasso	*	*I"Violoncelli	*	*I"Viole	*	*I"Violini 2	*	*I"Violini 1	*	*I"Tenore Basso	*I"Soprano Alto	*	*I"Arpa	*	*	*I"Fagotto	*	*I"Clarinetto in B♭	*	*I"Oboe	*	*I"Flauto	*
*I'C-b.	*	*I'V-c.	*	*I'V-le	*	*I'V-ni 2	*	*I'V-ni 1	*	*I'T B	*I'S A	*	*I'Ar.	*	*	*I'Fag.	*	*I'Cl. in B♭	*	*I'Ob.	*	*I'Fl.	*
*clefF4	*	*clefF4	*	*clefC3	*	*clefG2	*	*clefG2	*	*clefF4	*clefG2	*	*clefF4	*clefG2	*	*clefF4	*	*clefG2	*	*clefG2	*	*clefG2	*
*ITrd0c0	*	*	*	*	*	*	*	*	*	*	*	*	*	*	*	*	*	*ITrd1c2	*	*	*	*	*
*k[b-]	*	*k[b-]	*	*k[b-]	*	*k[b-]	*	*k[b-]	*	*k[b-]	*k[b-]	*	*k[b-]	*k[b-]	*	*k[b-]	*	*k[b-]	*	*k[b-]	*	*k[b-]	*
*M4/4	*	*M4/4	*	*M4/4	*	*M4/4	*	*M4/4	*	*M4/4	*M4/4	*	*M4/4	*M4/4	*	*M4/4	*	*M4/4	*	*M4/4	*	*M4/4	*
*MM60	*MM60	*	*MM60	*	*MM60	*	*MM60	*	*MM60	*	*MM60	*MM60	*	*MM60	*	*MM60	*	*MM60	*	*MM60	*	*MM60	*
=1	=1	=1	=1	=1	=1	=1	=1	=1	=1	=1	=1	=1	=1	=1	=1	=1	=1	=1	=1	=1	=1	=1	=1
!	!	!	!	!	!	!	!	!	!	!	!	!	!	!	!	!	!	!	!	!	!	!LO:TX:a:t=[quarter]=60	!
1r	.	1F	mf	4A	mf	2c	mf	4ff	mf	1r	1r	.	2F:	8c:L 8f: 8a: 8cc: 8ff:	mf	1r	.	1r	.	1r	.	1r	.
.	.	.	.	.	.	.	.	.	.	.	.	.	.	8c	.	.	.	.	.	.	.	.	.
.	.	.	.	4G	.	.	.	4ee	.	.	.	.	.	8f	.	.	.	.	.	.	.	.	.
.	.	.	.	.	.	.	.	.	.	.	.	.	.	8aJ	.	.	.	.	.	.	.	.	.
.	.	.	.	4A	.	[2f	.	4cc	.	.	.	.	2r	8ccL	.	.	.	.	.	.	.	.	.
.	.	.	.	.	.	.	.	.	.	.	.	.	.	8a	.	.	.	.	.	.	.	.	.
.	.	.	.	[4c	.	.	.	4a	.	.	.	.	.	8ff	.	.	.	.	.	.	.	.	.
.	.	.	.	.	.	.	.	.	.	.	.	.	.	8ccJ	.	.	.	.	.	.	.	.	.
=	=	=	=	=	=	=	=	=	=	=	=	=	=	=	=	=	=	=	=	=	=	=	=
1r	.	2.BB-	.	4c]	.	2f]	.	4dd	.	1r	1r	.	2B-:	8d:L 8f: 8b-: 8dd:	.	1r	.	1r	.	1r	.	1r	.
.	.	.	.	.	.	.	.	.	.	.	.	.	.	8f	.	.	.	.	.	.	.	.	.
.	.	.	.	2.B-	.	.	.	4cc	.	.	.	.	.	8b-	.	.	.	.	.	.	.	.	.
.	.	.	.	.	.	.	.	.	.	.	.	.	.	8ddJ	.	.	.	.	.	.	.	.	.
.	.	.	.	.	.	4d	.	4f	.	.	.	.	2r	8ffL	.	.	.	.	.	.	.	.	.
.	.	.	.	.	.	.	.	.	.	.	.	.	.	8dd	.	.	.	.	.	.	.	.	.
.	.	4C	.	.	.	4e	.	4g	.	.	.	.	.	8bb-	.	.	.	.	.	.	.	.	.
.	.	.	.	.	.	.	.	.	.	.	.	.	.	8aaJ	.	.	.	.	.	.	.	.	.
=	=	=	=	=	=	=	=	=	=	=	=	=	=	=	=	=	=	=	=	=	=	=	=
1r	.	1D	.	4A	.	4f	.	4a	.	1r	1r	.	2D:	8A:L 8d: 8f: 8a: 8dd: 8ff:	.	1r	.	1r	.	1r	.	1r	.
.	.	.	.	.	.	.	.	.	.	.	.	.	.	8f	.	.	.	.	.	.	.	.	.
.	.	.	.	4d	.	4a	.	4ff	.	.	.	.	.	8a	.	.	.	.	.	.	.	.	.
.	.	.	.	.	.	.	.	.	.	.	.	.	.	8ddJ	.	.	.	.	.	.	.	.	.
.	.	.	.	4c	.	4g	.	4ee	.	.	.	.	2r	8ffL	.	.	.	.	.	.	.	.	.
.	.	.	.	.	.	.	.	.	.	.	.	.	.	8ee	.	.	.	.	.	.	.	.	.
.	.	.	.	[4A	.	4f	.	4a	.	.	.	.	.	8dd	.	.	.	.	.	.	.	.	.
.	.	.	.	.	.	.	.	.	.	.	.	.	.	8aJ	.	.	.	.	.	.	.	.	.
=	=	=	=	=	=	=	=	=	=	=	=	=	=	=	=	=	=	=	=	=	=	=	=
1r	.	1AA	.	2.A_	.	2.e	.	2dd	.	1r	1r	.	2A:	8c:L 8e: 8a: 8cc: 8ee:	.	1r	.	1r	.	1r	.	1r	.
.	.	.	.	.	.	.	.	.	.	.	.	.	.	8e	.	.	.	.	.	.	.	.	.
.	.	.	.	.	.	.	.	.	.	.	.	.	.	8a	.	.	.	.	.	.	.	.	.
.	.	.	.	.	.	.	.	.	.	.	.	.	.	8ccJ	.	.	.	.	.	.	.	.	.
.	.	.	.	.	.	.	.	4.cc	.	.	.	.	2r	8eeL	.	.	.	.	.	.	.	.	.
.	.	.	.	.	.	.	.	.	.	.	.	.	.	8cc	.	.	.	.	.	.	.	.	.
.	.	.	.	8A]	.	4g	.	.	.	.	.	.	.	8aa	.	.	.	.	.	.	.	.	.
.	.	.	.	8A	.	.	.	8cc	.	.	.	.	.	8ggJ	.	.	.	.	.	.	.	.	.
=	=	=	=	=	=	=	=	=	=	=	=	=	=	=	=	=	=	=	=	=	=	=	=
1r	.	2.BB-	.	4d	.	4f	.	4ff	.	1r	1r	.	2B-:	8d:L 8f: 8b-: 8dd: 8ff:	.	1r	.	1r	.	1r	.	1r	.
.	.	.	.	.	.	.	.	.	.	.	.	.	.	8d	.	.	.	.	.	.	.	.	.
.	.	.	.	4c	.	4g	.	4ee	.	.	.	.	.	8f	.	.	.	.	.	.	.	.	.
.	.	.	.	.	.	.	.	.	.	.	.	.	.	8b-J	.	.	.	.	.	.	.	.	.
.	.	.	.	4A	.	4f	.	4cc	.	.	.	.	2r	8ddL	.	.	.	.	.	.	.	.	.
.	.	.	.	.	.	.	.	.	.	.	.	.	.	8b-	.	.	.	.	.	.	.	.	.
.	.	4AA	.	4F	.	4c	.	4a	.	.	.	.	.	8ff	.	.	.	.	.	.	.	.	.
.	.	.	.	.	.	.	.	.	.	.	.	.	.	8eeJ	.	.	.	.	.	.	.	.	.
=	=	=	=	=	=	=	=	=	=	=	=	=	=	=	=	=	=	=	=	=	=	=	=
1r	.	1GG	.	4A	.	2.d	.	4cc	.	1r	1r	.	2G:	8d:L 8g: 8b-: 8dd: 8gg:	.	1r	.	1r	.	1r	.	1r	.
.	.	.	.	.	.	.	.	.	.	.	.	.	.	8b-	.	.	.	.	.	.	.	.	.
.	.	.	.	4G	.	.	.	4b-	.	.	.	.	.	8dd	.	.	.	.	.	.	.	.	.
.	.	.	.	.	.	.	.	.	.	.	.	.	.	8ggJ	.	.	.	.	.	.	.	.	.
.	.	.	.	4B-	.	.	.	4f	.	.	.	.	2r	8bb-L	.	.	.	.	.	.	.	.	.
.	.	.	.	.	.	.	.	.	.	.	.	.	.	8aa	.	.	.	.	.	.	.	.	.
.	.	.	.	4c	.	4e	.	4g	.	.	.	.	.	8gg	.	.	.	.	.	.	.	.	.
.	.	.	.	.	.	.	.	.	.	.	.	.	.	8eeJ	.	.	.	.	.	.	.	.	.
=	=	=	=	=	=	=	=	=	=	=	=	=	=	=	=	=	=	=	=	=	=	=	=
1r	.	1D	.	4A	.	4f	.	4a	.	1r	1r	.	2D:	8A:L 8d: 8f: 8a: 8dd: 8ff:	.	1r	.	1r	.	2.r	.	2.r	.
.	.	.	.	.	.	.	.	.	.	.	.	.	.	8f	.	.	.	.	.	.	.	.	.
.	.	.	.	4F	.	4a	.	4dd	.	.	.	.	.	8a	.	.	.	.	.	.	.	.	.
.	.	.	.	.	.	.	.	.	.	.	.	.	.	8ddJ	.	.	.	.	.	.	.	.	.
.	.	.	.	4G	.	4e	.	4cc	.	.	.	.	2r	8ffL	.	.	.	.	.	.	.	.	.
.	.	.	.	.	.	.	.	.	.	.	.	.	.	8aa	.	.	.	.	.	.	.	.	.
.	.	.	.	4A	.	4d	.	4f	.	.	.	.	.	8dd	.	.	.	.	.	4d	mf <	4f	mf <
.	.	.	.	.	.	.	.	.	.	.	.	.	.	8ffJ	.	.	.	.	.	.	.	.	.
=	=	=	=	=	=	=	=	=	=	=	=	=	=	=	=	=	=	=	=	=	=	=	=
2.r	.	1C	<[	4G	<	8eL	<	8gL	<	1r	1r	.	2C: 2G:	2c: 2e: 2g: 2cc: 2ee: 2gg:	.	1r	.	1r	.	8eL	.	8gL	.
.	.	.	.	.	.	8fJ	.	8aJ	.	.	.	.	.	.	.	.	.	.	.	8fJ	.	8aJ	.
.	.	.	.	2.c	[[	8gL	.	16b-LL	.	.	.	.	.	.	.	.	.	.	.	8gL	.	16b-LL	.
.	.	.	.	.	.	.	.	16a	.	.	.	.	.	.	.	.	.	.	.	.	.	16a	.
.	.	.	.	.	.	16fL	.	16b-	.	.	.	.	.	.	.	.	.	.	.	16fL	.	16b-	.
.	.	.	.	.	.	16eJJ	.	16ccJJ	.	.	.	.	.	.	.	.	.	.	.	16eJJ	.	16ccJJ	.
.	.	.	.	.	.	16fLL	.	16ddLL	.	.	.	.	4.r	2r	.	.	.	.	.	16fLL	.	16ddLL	.
.	.	.	.	.	.	16g	.	16ee	.	.	.	.	.	.	.	.	.	.	.	16g	.	16ee	.
.	.	.	.	.	.	16a	.	16ff	.	.	.	.	.	.	.	.	.	.	.	16a	.	16ff	.
.	.	.	.	.	.	16b-JJ	.	16ggJJ	.	.	.	.	.	.	.	.	.	.	.	16b-JJ	.	16ggJJ	.
4C	ff	.	.	.	.	20ccLL	.	20aaLL	.	.	.	.	.	.	.	.	.	.	.	20ccLL	.	20aaLL	.
.	.	.	.	.	.	20dd	.	20bb-	.	.	.	.	.	.	.	.	.	.	.	20dd	.	20bb-	.
.	.	.	.	.	.	20ee	.	20ccc	.	.	.	.	.	.	.	.	.	.	.	20ee	.	20ccc	.
.	.	.	.	.	.	.	.	.	.	.	.	.	8c	.	ff	.	.	.	.	.	.	.	.
.	.	.	.	.	.	20dd	.	20ddd	.	.	.	.	.	.	.	.	.	.	.	20dd	.	20ddd	.
.	.	.	.	.	.	20ccJJ	[[	20eeeJJ	[[	.	.	.	.	.	.	.	.	.	.	20ccJJ	[[	20eeeJJ	[[
=	=	=	=	=	=	=	=	=	=	=	=	=	=	=	=	=	=	=	=	=	=	=	=
1F	.	1F	ff	2c	ff	4a	.	4fff	.	1r	1r	.	4F	4r	.	8r	.	1r	.	4a	ff	4fff	ff
.	.	.	.	.	.	.	.	.	.	.	.	.	.	.	.	8FL	ff	.	.	.	.	.	.
.	.	.	.	.	.	4g	.	4eee	.	.	.	.	4r	4ccc	.	8C	.	.	.	4cc	.	2.r	.
.	.	.	.	.	.	.	.	.	.	.	.	.	.	.	.	8FJ	.	.	.	.	.	.	.
.	.	.	.	[2f	.	4a	.	4ccc	.	.	.	.	2r	2r	.	8G	.	.	.	8aL	.	.	.
.	.	.	.	.	.	.	.	.	.	.	.	.	.	.	.	4A	.	.	.	8g	.	.	.
.	.	.	.	.	.	[4cc	.	4aa	.	.	.	.	.	.	.	.	.	.	.	8f	.	.	.
.	.	.	.	.	.	.	.	.	.	.	.	.	.	.	.	16GLL	.	.	.	8cJ	.	.	.
.	.	.	.	.	.	.	.	.	.	.	.	.	.	.	.	16AJJ	.	.	.	.	.	.	.
=	=	=	=	=	=	=	=	=	=	=	=	=	=	=	=	=	=	=	=	=	=	=	=
2.BB-	.	2.BB-	.	2f]	.	4cc]	.	4ddd	.	1r	1r	.	2B-:	2f: 2cc: 2dd: 2ff: 2bb-:	.	8B-L	.	1r	.	8dL	.	2r	.
.	.	.	.	.	.	.	.	.	.	.	.	.	.	.	.	8A	.	.	.	8f	.	.	.
.	.	.	.	.	.	2.b-	.	4ccc	.	.	.	.	.	.	.	8F	.	.	.	8b-	.	.	.
.	.	.	.	.	.	.	.	.	.	.	.	.	.	.	.	[8BB-J	.	.	.	8aJ	.	.	.
.	.	.	.	4d	.	.	.	4ff	.	.	.	.	4r	4r	.	4BB-]	.	.	.	4f	.	16bb-LL	.
.	.	.	.	.	.	.	.	.	.	.	.	.	.	.	.	.	.	.	.	.	.	16aa	.
.	.	.	.	.	.	.	.	.	.	.	.	.	.	.	.	.	.	.	.	.	.	16gg	.
.	.	.	.	.	.	.	.	.	.	.	.	.	.	.	.	.	.	.	.	.	.	16ffJJ	.
4C	.	4C	.	4e	.	.	.	4gg	.	.	.	.	4r	4r	.	8r	.	.	.	8gL	.	8eeL	.
.	.	.	.	.	.	.	.	.	.	.	.	.	.	.	.	8C	.	.	.	8b-J	.	16ffL	.
.	.	.	.	.	.	.	.	.	.	.	.	.	.	.	.	.	.	.	.	.	.	16ggJJ	.
=	=	=	=	=	=	=	=	=	=	=	=	=	=	=	=	=	=	=	=	=	=	=	=
1D	.	1D	.	4f	.	4a	.	4aa	.	1r	1r	.	2D:	2f: 2a: 2cc: 2ff: 2aa:	.	12DL	.	1r	.	2.a	.	4ff	.
.	.	.	.	.	.	.	.	.	.	.	.	.	.	.	.	12F	.	.	.	.	.	.	.
.	.	.	.	.	.	.	.	.	.	.	.	.	.	.	.	12AJ	.	.	.	.	.	.	.
.	.	.	.	4a	.	4dd	.	4fff	.	.	.	.	.	.	.	12dL	.	.	.	.	.	4r	.
.	.	.	.	.	.	.	.	.	.	.	.	.	.	.	.	12A	.	.	.	.	.	.	.
.	.	.	.	.	.	.	.	.	.	.	.	.	.	.	.	12FJ	.	.	.	.	.	.	.
.	.	.	.	4g	.	4cc	.	4eee	.	.	.	.	4r	4r	.	4D	.	.	.	.	.	16ddLL	.
.	.	.	.	.	.	.	.	.	.	.	.	.	.	.	.	.	.	.	.	.	.	16ee	.
.	.	.	.	.	.	.	.	.	.	.	.	.	.	.	.	.	.	.	.	.	.	16ff	.
.	.	.	.	.	.	.	.	.	.	.	.	.	.	.	.	.	.	.	.	.	.	16ggJJ	.
.	.	.	.	4f	.	[4a	.	4aa	.	.	.	.	4r	4r	.	8r	.	.	.	4r	.	8aaL	.
.	.	.	.	.	.	.	.	.	.	.	.	.	.	.	.	16FLL	.	.	.	.	.	8dddJ	.
.	.	.	.	.	.	.	.	.	.	.	.	.	.	.	.	16GJJ	.	.	.	.	.	.	.
=	=	=	=	=	=	=	=	=	=	=	=	=	=	=	=	=	=	=	=	=	=	=	=
1AA	.	1AA	.	2.e	.	2.a_	.	2ddd	.	1r	1r	.	2A:	2e: 2a: 2cc: 2ee: 2aa:	.	8A'L	.	2.r	.	2r	.	4.eee	.
.	.	.	.	.	.	.	.	.	.	.	.	.	.	.	.	8E'J	.	.	.	.	.	.	.
.	.	.	.	.	.	.	.	.	.	.	.	.	.	.	.	2AA	.	.	.	.	.	.	.
.	.	.	.	.	.	.	.	.	.	.	.	.	.	.	.	.	.	.	.	.	.	8dddL	.
.	.	.	.	.	.	.	.	4.ccc	.	.	.	.	2r	8r	.	.	.	.	.	4r	.	16cccL	.
.	.	.	.	.	.	.	.	.	.	.	.	.	.	.	.	.	.	.	.	.	.	16dddJJ	.
.	.	.	.	.	.	.	.	.	.	.	.	.	.	16r	.	.	.	.	.	.	.	4eee	.
.	.	.	.	.	.	.	.	.	.	.	.	.	.	16gg	.	.	.	.	.	.	.	.	.
.	.	.	.	4g	.	8a]	.	.	.	.	.	.	.	16aaLL	.	4r	.	8r	.	8r	.	.	.
.	.	.	.	.	.	.	.	.	.	.	.	.	.	16gg	.	.	.	.	.	.	.	.	.
.	.	.	.	.	.	8a	.	8ccc	.	.	.	.	.	16ff	.	.	.	8a	f	8cc	.	16cccLL	.
.	.	.	.	.	.	.	.	.	.	.	.	.	.	16eeJJ	.	.	.	.	.	.	.	16aaJJ	.
=	=	=	=	=	=	=	=	=	=	=	=	=	=	=	=	=	=	=	=	=	=	=	=
2.BB-	f	2.BB-	f	4f	f	4dd	f	4fff	f	1r	1r	.	2B-:	2d: 2f: 2cc: 2dd: 2ff:	f	1r	.	8fL	.	4dd	f	4.ff	.
.	.	.	.	.	.	.	.	.	.	.	.	.	.	.	.	.	.	8g	.	.	.	.	.
.	.	.	.	4g	.	4cc	.	4eee	.	.	.	.	.	.	.	.	.	8b-	.	[4cc	.	.	.
.	.	.	.	.	.	.	.	.	.	.	.	.	.	.	.	.	.	8aJ	.	.	.	8r	.
.	.	.	.	4f	.	4a	.	4ccc	.	.	.	.	4r	4r	.	.	.	4f	.	8ccL]	.	2r	.
.	.	.	.	.	.	.	.	.	.	.	.	.	.	.	.	.	.	.	.	8dd	.	.	.
4AA	.	4AA	.	4c	.	4f	.	4aa	.	.	.	.	4r	8r	.	.	.	4a	.	8cc	.	.	.
.	.	.	.	.	.	.	.	.	.	.	.	.	.	16ddLL	.	.	.	.	.	8fJ	.	.	.
.	.	.	.	.	.	.	.	.	.	.	.	.	.	16eeJJ	.	.	.	.	.	.	.	.	.
=	=	=	=	=	=	=	=	=	=	=	=	=	=	=	=	=	=	=	=	=	=	=	=
1GG	.	1GG	.	2.d	.	4a	.	4ccc	.	1r	1r	.	2G:	2d: 2g: 2b-: 2dd: 2ff:	.	1r	.	12gL	.	4cc	.	1r	.
.	.	.	.	.	.	.	.	.	.	.	.	.	.	.	.	.	.	12b-	.	.	.	.	.
.	.	.	.	.	.	.	.	.	.	.	.	.	.	.	.	.	.	12ddJ	.	.	.	.	.
.	.	.	.	.	.	4g	.	4bb-	.	.	.	.	.	.	.	.	.	12ggL	.	4b-	.	.	.
.	.	.	.	.	.	.	.	.	.	.	.	.	.	.	.	.	.	12dd	.	.	.	.	.
.	.	.	.	.	.	.	.	.	.	.	.	.	.	.	.	.	.	12b-J	.	.	.	.	.
.	.	.	.	.	.	4b-	.	4ff	.	.	.	.	2r	8r	.	.	.	4g	.	8dL	.	.	.
.	.	.	.	.	.	.	.	.	.	.	.	.	.	16r	.	.	.	.	.	8b-	.	.	.
.	.	.	.	.	.	.	.	.	.	.	.	.	.	16ee	.	.	.	.	.	.	.	.	.
.	.	.	.	4e	.	4cc	.	4gg	.	.	.	.	.	16ddLL	.	.	.	8r	.	8a	.	.	.
.	.	.	.	.	.	.	.	.	.	.	.	.	.	16ee	.	.	.	.	.	.	.	.	.
.	.	.	.	.	.	.	.	.	.	.	.	.	.	16ff	.	.	.	16fLL	.	8gJ	.	.	.
.	.	.	.	.	.	.	.	.	.	.	.	.	.	16ggJJ	.	.	.	16eJJ	.	.	.	.	.
=	=	=	=	=	=	=	=	=	=	=	=	=	=	=	=	=	=	=	=	=	=	=	=
1D	.	1D	.	4f	.	4a	.	4aa	.	1r	1r	.	4D:	4f: 4a: 4dd: 4ff: 4aa:	.	1r	.	4.f	.	2a	.	1r	.
.	.	.	.	4A	.	4f	.	4ddd	.	.	.	.	4r	8r	.	.	.	.	.	.	.	.	.
.	.	.	.	.	.	.	.	.	.	.	.	.	.	8a	.	.	.	8e	.	.	.	.	.
.	.	.	.	4e	.	4g	.	4ccc	.	.	.	.	2r	8ffL	.	.	.	4d'	.	8r	.	.	.
.	.	.	.	.	.	.	.	.	.	.	.	.	.	8ee	.	.	.	.	.	16fLL	.	.	.
.	.	.	.	.	.	.	.	.	.	.	.	.	.	.	.	.	.	.	.	16gJJ	.	.	.
.	.	.	.	4f	.	4a	.	4ff	.	.	.	.	.	8dd	.	.	.	16dLL	.	8aL	.	.	.
.	.	.	.	.	.	.	.	.	.	.	.	.	.	.	.	.	.	16f	.	.	.	.	.
.	.	.	.	.	.	.	.	.	.	.	.	.	.	8ffJ	.	.	.	16a	.	8fJ	.	.	.
.	.	.	.	.	.	.	.	.	.	.	.	.	.	.	.	.	.	16b-JJ	.	.	.	.	.
=	=	=	=	=	=	=	=	=	=	=	=	=	=	=	=	=	=	=	=	=	=	=	=
1C	.	1C	.	2f	.	4g	.	[2.gg	.	1r	1r	.	4C:	4c: 4g: 4cc: 4ff: 4gg:	.	2r	.	2cc	.	8g'L	.	2.r	.
.	.	.	.	.	.	.	.	.	.	.	.	.	.	.	.	.	.	.	.	8g	.	.	.
.	.	.	.	.	.	2.cc	.	.	.	.	.	.	4r	4r	.	.	.	.	.	8a	.	.	.
.	.	.	.	.	.	.	.	.	.	.	.	.	.	.	.	.	.	.	.	8b-J	.	.	.
.	.	.	.	2e	.	.	.	.	.	.	.	.	4C:	4c: 4g: 4cc: 4ee: 4gg:	.	4G	f	8gL	.	8ccL	.	.	.
.	.	.	.	.	.	.	.	.	.	.	.	.	.	.	.	.	.	8e	.	8dd	.	.	.
.	.	.	.	.	.	.	.	8ggL]	.	.	.	.	4r	4r	.	4C	.	8g	.	8ee	.	8ggL	f
.	.	.	.	.	.	.	.	8ffJ	.	.	.	.	.	.	.	.	.	8ccJ	.	[8ffJ	.	8aaJ	.
=	=	=	=	=	=	=	=	=	=	=	=	=	=	=	=	=	=	=	=	=	=	=	=
4F~	.	4F~	.	4c~	.	4b-~	.	1ffZ	.	1r	1r	.	4r	4f	.	4F~	.	2b-	.	1ffZ]	.	2bb-	.
4F~	.	4F~	.	4c~	.	4b-~	.	.	.	.	.	.	2F	4r	.	4F~	.	.	.	.	.	.	.
2FFZ	.	2FFZ	.	2cZ	.	2aZ	.	.	.	.	.	.	.	4r	.	2FFZ	.	2aZ	.	.	.	2cccWZ	.
.	.	.	.	.	.	.	.	.	.	.	.	.	4rZ	4fffZ	.	.	.	.	.	.	.	.	.
=||	=||	=||	=||	=||	=||	=||	=||	=||	=||	=||	=||	=||	=||	=||	=||	=||	=||	=||	=||	=||	=||	=||	=||
*	*	*	*	*	*	*	*	*	*	*^	*^	*	*	*	*	*	*	*	*	*	*	*	*
!LO:TX:a:t=pizz.	!	!	!	!	!	!	!	!	!	!	!	!	!	!	!	!	!	!	!	!	!	!	!	!	!
4F	mf	1r	.	1r	.	1r	.	1r	.	4c	4F	4a	4f	Mi-	1r	1r	.	1r	.	1r	.	1r	.	1r	.
8r	.	.	.	.	.	.	.	.	.	8cL	8FL	8aL	8fL	-łość	.	.	.	.	.	.	.	.	.	.	.
8F	.	.	.	.	.	.	.	.	.	8B-J	8FJ	8gJ	8fJ	po-	.	.	.	.	.	.	.	.	.	.	.
4G	.	.	.	.	.	.	.	.	.	8dL	8GL	8b-L	8gL	-tęż-	.	.	.	.	.	.	.	.	.	.	.
.	.	.	.	.	.	.	.	.	.	8c	8G	8a	8d	-na	.	.	.	.	.	.	.	.	.	.	.
8r	.	.	.	.	.	.	.	.	.	8B-	8G	8f	8d	jest	.	.	.	.	.	.	.	.	.	.	.
16GLL	.	.	.	.	.	.	.	.	.	8cJ	8GJ	8gJ	8eJ	jak	.	.	.	.	.	.	.	.	.	.	.
16EJJ	.	.	.	.	.	.	.	.	.	.	.	.	.	.	.	.	.	.	.	.	.	.	.	.	.
=	=	=	=	=	=	=	=	=	=	=	=	=	=	=	=	=	=	=	=	=	=	=	=	=	=
4D	.	2.r	.	2.r	.	2.r	.	2.r	.	[8d	[8D	(8g	(8e	śmierć,	1r	1r	.	1r	.	1r	.	2.r	.	1r	.
.	.	.	.	.	.	.	.	.	.	2.d]	2.D]	2.a)	2.f)	.	.	.	.	.	.	.	.	.	.	.	.
8r	.	.	.	.	.	.	.	.	.	.	.	.	.	.	.	.	.	.	.	.	.	.	.	.	.
8AA	.	.	.	.	.	.	.	.	.	.	.	.	.	.	.	.	.	.	.	.	.	.	.	.	.
4D	.	.	.	.	.	.	.	.	.	.	.	.	.	.	.	.	.	.	.	.	.	.	.	.	.
8r	.	4r	.	4r	.	4r	.	4r	.	.	.	.	.	.	.	.	.	.	.	.	.	8fL	mf	.	.
8E	.	.	.	.	.	.	.	.	.	8c	8E	8g	8g	jak	.	.	.	.	.	.	.	8gJ	.	.	.
=	=	=	=	=	=	=	=	=	=	=	=	=	=	=	=	=	=	=	=	=	=	=	=	=	=
4F	.	1r	.	1r	.	1r	.	1r	.	4c	4F	4a	4g	Ot-	1r	1r	.	1r	.	1r	.	4.a	.	1r	.
8r	.	.	.	.	.	.	.	.	.	8cL	8FL	8aL	8fL	-chłań	.	.	.	.	.	.	.	.	.	.	.
16CLL	.	.	.	.	.	.	.	.	.	8B-J	8FJ	8gJ	8fJ	nie-	.	.	.	.	.	.	.	8g	.	.	.
16FJJ	.	.	.	.	.	.	.	.	.	.	.	.	.	.	.	.	.	.	.	.	.	.	.	.	.
4G	.	.	.	.	.	.	.	.	.	8dL	8GL	8b-L	8gL	-prze-	.	.	.	.	.	.	.	8b-L	.	.	.
.	.	.	.	.	.	.	.	.	.	8c	8G	8a	8d	-jed-	.	.	.	.	.	.	.	8a	.	.	.
16r	.	.	.	.	.	.	.	.	.	8B-	8G	8f	8d	-na-	.	.	.	.	.	.	.	8f	.	.	.
16GLL	.	.	.	.	.	.	.	.	.	.	.	.	.	.	.	.	.	.	.	.	.	.	.	.	.
16B-	.	.	.	.	.	.	.	.	.	8cJ	8GJ	8gJ	8eJ	-na	.	.	.	.	.	.	.	[8gJ	.	.	.
16GJJ	.	.	.	.	.	.	.	.	.	.	.	.	.	.	.	.	.	.	.	.	.	.	.	.	.
=	=	=	=	=	=	=	=	=	=	=	=	=	=	=	=	=	=	=	=	=	=	=	=	=	=
4D	.	1r	.	1r	.	1r	.	1r	.	8AL	8DL	8gL	4.d	za-	1r	1r	.	2.r	.	1r	.	8gL]	.	1r	.
.	.	.	.	.	.	.	.	.	.	8AJ	8DJ	8aJ	.	-zdrość	.	.	.	.	.	.	.	[8aJ	.	.	.
8r	.	.	.	.	.	.	.	.	.	2.d	2.D	2.a	.	jej.	.	.	.	.	.	.	.	4a]	.	.	.
8AA	.	.	.	.	.	.	.	.	.	.	.	.	8e	.	.	.	.	.	.	.	.	.	.	.	.
4D	.	.	.	.	.	.	.	.	.	.	.	.	2f	.	.	.	.	.	.	.	.	16gLL	.	.	.
.	.	.	.	.	.	.	.	.	.	.	.	.	.	.	.	.	.	.	.	.	.	16a	.	.	.
.	.	.	.	.	.	.	.	.	.	.	.	.	.	.	.	.	.	.	.	.	.	16g	.	.	.
.	.	.	.	.	.	.	.	.	.	.	.	.	.	.	.	.	.	.	.	.	.	16fJJ	.	.	.
8r	.	.	.	.	.	.	.	.	.	.	.	.	.	.	.	.	.	4D	mf	.	.	16eLL	.	.	.
.	.	.	.	.	.	.	.	.	.	.	.	.	.	.	.	.	.	.	.	.	.	16f	.	.	.
8D	.	.	.	.	.	.	.	.	.	.	.	.	.	.	.	.	.	.	.	.	.	16g	.	.	.
.	.	.	.	.	.	.	.	.	.	.	.	.	.	.	.	.	.	.	.	.	.	16aJJ	.	.	.
=	=	=	=	=	=	=	=	=	=	=	=	=	=	=	=	=	=	=	=	=	=	=	=	=	=
4E-X	.	1r	.	1r	.	1r	.	1r	.	4B-	4E-X	4g	4f	Żar	1r	1r	.	8E-XL	.	1r	.	2g	.	1r	.
.	.	.	.	.	.	.	.	.	.	.	.	.	.	.	.	.	.	8BB-	.	.	.	.	.	.	.
8r	.	.	.	.	.	.	.	.	.	4B-	4E-	4g	4e-X	jej	.	.	.	8GG	.	.	.	.	.	.	.
8E-	.	.	.	.	.	.	.	.	.	.	.	.	.	.	.	.	.	8EE-XJ	.	.	.	.	.	.	.
4F	.	.	.	.	.	.	.	.	.	4B-	4F	4g	4e-	to	.	.	.	8FFL	.	.	.	4g	.	.	.
.	.	.	.	.	.	.	.	.	.	.	.	.	.	.	.	.	.	8C	.	.	.	.	.	.	.
8r	.	.	.	.	.	.	.	.	.	4c	4F	4a	4e-	żar	.	.	.	8F	.	.	.	4a	.	.	.
8F	.	.	.	.	.	.	.	.	.	.	.	.	.	.	.	.	.	8AJ	.	.	.	.	.	.	.
=	=	=	=	=	=	=	=	=	=	=	=	=	=	=	=	=	=	=	=	=	=	=	=	=	=
4G	.	2r	.	1r	.	1r	.	1r	.	(8cL	4G	(8aL	(8dL	o-	1r	1r	.	8GL	.	1r	.	8aL	.	1r	.
.	.	.	.	.	.	.	.	.	.	8dJ)	.	8b-J)	8gJ)	.	.	.	.	8DJ	.	.	.	[8b-J	.	.	.
8r	.	.	.	.	.	.	.	.	.	2d	2G	2b-	2g	-gnia,	.	.	.	16BB-LL	.	.	.	2b-]	.	.	.
.	.	.	.	.	.	.	.	.	.	.	.	.	.	.	.	.	.	16C	.	.	.	.	.	.	.
8D	.	.	.	.	.	.	.	.	.	.	.	.	.	.	.	.	.	16BB-	.	.	.	.	.	.	.
.	.	.	.	.	.	.	.	.	.	.	.	.	.	.	.	.	.	16AAJJ	.	.	.	.	.	.	.
4G	.	4r	.	.	.	.	.	.	.	.	.	.	.	.	.	.	.	4GG	.	.	.	.	.	.	.
4r	.	8r	.	.	.	.	.	.	.	8dL	8DL	8aL	8fL	pło-	.	.	.	4r	.	.	.	8aL	.	.	.
!	!	!LO:TX:a:t=arco	!	!	!	!	!	!	!	!	!	!	!	!	!	!	!	!	!	!	!	!	!	!	!
.	.	16ALL	mf	.	.	.	.	.	.	8AJ	8DJ	8gJ	8eJ	-mień	.	.	.	.	.	.	.	8gJ	.	.	.
.	.	16B-JJ	.	.	.	.	.	.	.	.	.	.	.	.	.	.	.	.	.	.	.	.	.	.	.
=	=	=	=	=	=	=	=	=	=	=	=	=	=	=	=	=	=	=	=	=	=	=	=	=	=
2.r	.	8cL	.	4r	.	2r	.	2.r	.	(8AL	4C	(8fL	2f	Pa-	2.r	1r	.	1r	.	1r	.	8fL	.	2r	.
.	.	8B-J	.	.	.	.	.	.	.	8cJ)	.	8gJ)	.	.	.	.	.	.	.	.	.	[8gJ	.	.	.
!	!	!	!	!LO:TX:a:t=arco	!	!	!	!	!	!	!	!	!	!	!	!	!	!	!	!	!	!	!	!	!
.	.	16GLL	.	8cL	mf	.	.	.	.	2.c	2.C	2.g	.	-na.	.	.	.	.	.	.	.	2.g]	.	.	.
.	.	16A	.	.	.	.	.	.	.	.	.	.	.	.	.	.	.	.	.	.	.	.	.	.	.
.	.	16G	.	8B-J	.	.	.	.	.	.	.	.	.	.	.	.	.	.	.	.	.	.	.	.	.
.	.	16FJJ	.	.	.	.	.	.	.	.	.	.	.	.	.	.	.	.	.	.	.	.	.	.	.
!	!	!	!	!	!	!LO:TX:a:t=arco	!	!	!	!	!	!	!	!	!	!	!	!	!	!	!	!	!	!	!
.	.	16ELL	.	16GLL	.	8cL	mf	.	.	.	.	.	2e	.	.	.	.	.	.	.	.	.	.	4.r	.
.	.	16F	.	16A	.	.	.	.	.	.	.	.	.	.	.	.	.	.	.	.	.	.	.	.	.
.	.	16E	.	16G	.	8B-J	.	.	.	.	.	.	.	.	.	.	.	.	.	.	.	.	.	.	.
.	.	16DJJ	.	16FJJ	.	.	.	.	.	.	.	.	.	.	.	.	.	.	.	.	.	.	.	.	.
!LO:TX:a:t=arco	!	!	!	!	!	!	!	!LO:TX:a:t=arco	!	!	!	!	!	!	!	!	!	!	!	!	!	!	!	!	!
4C	.	4C	.	16ELL	.	16GLL	.	16cLL	mf	.	.	.	.	.	4C	.	mf	.	.	.	.	.	.	.	.
.	.	.	.	16G	.	16c	.	16e	.	.	.	.	.	.	.	.	.	.	.	.	.	.	.	.	.
.	.	.	.	16A	.	16d	.	16f	.	.	.	.	.	.	.	.	.	.	.	.	.	.	.	8gg	mf
.	.	.	.	16B-JJ	.	16eJJ	.	16gJJ	.	.	.	.	.	.	.	.	.	.	.	.	.	.	.	.	.
=	=	=	=	=	=	=	=	=	=	=	=	=	=	=	=	=	=	=	=	=	=	=	=	=	=
2F	.	2F	.	4.c	.	2f	.	4.a	.	4c	4F	4a	4f	Mi-	4F: 4c:	4f: 4a: 4cc: 4ff:	.	1r	.	1r	.	1r	.	4.aa	.
.	.	.	.	.	.	.	.	.	.	8cL	8FL	8aL	8fL	-łość	4r	4r	.	.	.	.	.	.	.	.	.
.	.	.	.	8B-	.	.	.	8g	.	8B-J	8FJ	8gJ	8fJ	po-	.	.	.	.	.	.	.	.	.	8gg	.
2G	.	2G	.	8dL	.	8g	.	8b-L	.	8dL	8GL	8b-L	8gL	-tęż-	2r	2r	.	.	.	.	.	.	.	8bb-L	.
.	.	.	.	8c	.	4d	.	8a	.	8c	8G	8a	8d	-na	.	.	.	.	.	.	.	.	.	8aa	.
.	.	.	.	8B-	.	.	.	8f	.	8B-	8G	8f	8d	jest	.	.	.	.	.	.	.	.	.	8ff	.
.	.	.	.	8cJ	.	[8e	.	[8gJ	.	8cJ	8GJ	8gJ	8eJ	jak	.	.	.	.	.	.	.	.	.	[8ggJ	.
=	=	=	=	=	=	=	=	=	=	=	=	=	=	=	=	=	=	=	=	=	=	=	=	=	=
[8D	.	[8D	.	[8d	.	8e]	.	8g]	.	[8d	[8D	(8g	(8e	śmierć,	1r	1r	.	1r	.	2.r	.	1r	.	8gg]	.
2.D]	.	2.D]	.	2.d]	.	2.f	.	2.a	.	2.d]	2.D]	2.a)	2.f)	.	.	.	.	.	.	.	.	.	.	4aa	.
.	.	.	.	.	.	.	.	.	.	.	.	.	.	.	.	.	.	.	.	.	.	.	.	16r	.
.	.	.	.	.	.	.	.	.	.	.	.	.	.	.	.	.	.	.	.	.	.	.	.	16gg	.
.	.	.	.	.	.	.	.	.	.	.	.	.	.	.	.	.	.	.	.	.	.	.	.	16aaLL	.
.	.	.	.	.	.	.	.	.	.	.	.	.	.	.	.	.	.	.	.	.	.	.	.	16gg	.
.	.	.	.	.	.	.	.	.	.	.	.	.	.	.	.	.	.	.	.	.	.	.	.	16ff	.
.	.	.	.	.	.	.	.	.	.	.	.	.	.	.	.	.	.	.	.	.	.	.	.	16ggJJ	.
.	.	.	.	.	.	.	.	.	.	.	.	.	.	.	.	.	.	.	.	8r	.	.	.	16ffLL	.
.	.	.	.	.	.	.	.	.	.	.	.	.	.	.	.	.	.	.	.	.	.	.	.	16ee	.
8E	.	8E	.	8c	.	8e	.	8g	.	8c	8E	8g	8g	jak	.	.	.	.	.	8g	mf	.	.	16dd	.
.	.	.	.	.	.	.	.	.	.	.	.	.	.	.	.	.	.	.	.	.	.	.	.	[16ccJJ	.
=	=	=	=	=	=	=	=	=	=	=	=	=	=	=	=	=	=	=	=	=	=	=	=	=	=
2F	.	2F	.	4.c	.	4g	.	4.a	.	4c	4F	4a	4g	Ot-	1r	1r	.	1r	.	4.a	.	1r	.	4cc]	.
.	.	.	.	.	.	4f	.	.	.	8cL	8FL	8aL	8fL	-chłań	.	.	.	.	.	.	.	.	.	4ff	.
.	.	.	.	8B-	.	.	.	8g	.	8B-J	8FJ	8gJ	8fJ	nie-	.	.	.	.	.	8g	.	.	.	.	.
2G	.	2G	.	8dL	.	8g	.	8b-L	.	8dL	8GL	8b-L	8gL	-prze-	.	.	.	.	.	8b-L	.	.	.	2r	.
.	.	.	.	8c	.	4d	.	8a	.	8c	8G	8a	8d	-jed-	.	.	.	.	.	8a	.	.	.	.	.
.	.	.	.	8B-	.	.	.	8f	.	8B-	8G	8f	8d	-na-	.	.	.	.	.	8f	.	.	.	.	.
.	.	.	.	8cJ	.	8e	.	[8gJ	.	8cJ	8GJ	8gJ	8eJ	-na	.	.	.	.	.	[8gJ	.	.	.	.	.
=	=	=	=	=	=	=	=	=	=	=	=	=	=	=	=	=	=	=	=	=	=	=	=	=	=
1D	.	1D	.	2A	.	4.d	.	8gL]	.	8AL	8DL	8gL	4.d	za-	1r	1r	.	1r	.	8g]	.	1r	.	1r	.
.	.	.	.	.	.	.	.	8aJ	.	8AJ	8DJ	8aJ	.	-zdrość	.	.	.	.	.	4a	.	.	.	.	.
.	.	.	.	.	.	.	.	2.a	.	2.d	2.D	2.a	.	jej.	.	.	.	.	.	.	.	.	.	.	.
.	.	.	.	.	.	8e	.	.	.	.	.	.	8e	.	.	.	.	.	.	16r	.	.	.	.	.
.	.	.	.	.	.	.	.	.	.	.	.	.	.	.	.	.	.	.	.	16g	.	.	.	.	.
.	.	.	.	2d	.	2f	.	.	.	.	.	.	2f	.	.	.	.	.	.	8f'L	.	.	.	.	.
.	.	.	.	.	.	.	.	.	.	.	.	.	.	.	.	.	.	.	.	16dL	.	.	.	.	.
.	.	.	.	.	.	.	.	.	.	.	.	.	.	.	.	.	.	.	.	16cJJ	.	.	.	.	.
.	.	.	.	.	.	.	.	.	.	.	.	.	.	.	.	.	.	.	.	16dLL	.	.	.	.	.
.	.	.	.	.	.	.	.	.	.	.	.	.	.	.	.	.	.	.	.	16f	.	.	.	.	.
.	.	.	.	.	.	.	.	.	.	.	.	.	.	.	.	.	.	.	.	16g	.	.	.	.	.
.	.	.	.	.	.	.	.	.	.	.	.	.	.	.	.	.	.	.	.	16aJJ	.	.	.	.	.
=	=	=	=	=	=	=	=	=	=	=	=	=	=	=	=	=	=	=	=	=	=	=	=	=	=
2E-X	.	2E-X	.	8r	.	2g	.	8r	.	4B-	4E-X	4g	4f	Żar	1r	1r	.	1r	.	2g	.	1r	.	1r	.
.	.	.	.	8GL	.	.	.	8b-L	.	.	.	.	.	.	.	.	.	.	.	.	.	.	.	.	.
.	.	.	.	8B-	.	.	.	8ee-X	.	4B-	4E-	4g	4e-X	jej	.	.	.	.	.	.	.	.	.	.	.
.	.	.	.	[8e-XJ	.	.	.	[8bb-J	.	.	.	.	.	.	.	.	.	.	.	.	.	.	.	.	.
2F	.	2F	.	8e-L]	.	[2a	.	8bb-L]	.	4B-	4F	4g	4e-	to	.	.	.	.	.	2r	.	.	.	.	.
.	.	.	.	8A	.	.	.	8cc	.	.	.	.	.	.	.	.	.	.	.	.	.	.	.	.	.
.	.	.	.	8c	.	.	.	8ff	.	4c	4F	4a	4e-	żar	.	.	.	.	.	.	.	.	.	.	.
.	.	.	.	[8fJ	.	.	.	[8cccJ	.	.	.	.	.	.	.	.	.	.	.	.	.	.	.	.	.
=	=	=	=	=	=	=	=	=	=	=	=	=	=	=	=	=	=	=	=	=	=	=	=	=	=
2.G	.	2.G	.	8fL]	.	8aL]	.	8cccL]	.	(8cL	4G	(8aL	(8dL	o-	1r	1r	.	1r	.	1r	.	1r	.	1r	.
.	.	.	.	8d	.	[8gJ	.	8bb-	.	8dJ)	.	8b-J)	8gJ)	.	.	.	.	.	.	.	.	.	.	.	.
.	.	.	.	8B-	.	2g]	.	8gg	.	2d	2G	2b-	2g	-gnia,	.	.	.	.	.	.	.	.	.	.	.
.	.	.	.	8GJ	.	.	.	8ddJ	.	.	.	.	.	.	.	.	.	.	.	.	.	.	.	.	.
.	.	.	.	4.d	.	.	.	4b-	.	.	.	.	.	.	.	.	.	.	.	.	.	.	.	.	.
4D	.	4D	.	.	.	8fL	.	8aL	.	8dL	8DL	8aL	8fL	pło-	.	.	.	.	.	.	.	.	.	.	.
.	.	.	.	8A	.	8eJ	.	8gJ	.	8AJ	8DJ	8gJ	8eJ	-mień	.	.	.	.	.	.	.	.	.	.	.
=	=	=	=	=	=	=	=	=	=	=	=	=	=	=	=	=	=	=	=	=	=	=	=	=	=
1C	.	1C	.	1c	.	2f	.	8fL	.	(8AL	4C	(8fL	2f	Pa-	1r	1r	.	1r	.	1r	.	2.r	.	1r	.
.	.	.	.	.	.	.	.	8gJ	.	8cJ)	.	8gJ)	.	.	.	.	.	.	.	.	.	.	.	.	.
.	.	.	.	.	.	.	.	2.g	.	2c	2C	2g	.	-na.	.	.	.	.	.	.	.	.	.	.	.
.	.	.	.	.	.	2e	.	.	.	.	.	.	4e	.	.	.	.	.	.	.	.	.	.	.	.
.	.	.	.	.	.	.	.	.	.	8dL	8CL	8aL	8fL	Wo-	.	.	.	.	.	.	.	8aL	.	.	.
.	.	.	.	.	.	.	.	.	.	8eJ	8CJ	8b-J	8gJ	-dy	.	.	.	.	.	.	.	8b-J	.	.	.
=	=	=	=	=	=	=	=	=	=	=	=	=	=	=	=	=	=	=	=	=	=	=	=	=	=
4G'~	.	4G'~	.	4d'~	.	4g'~	.	4cc'~	.	2d	2G	2cc	2g	wiel-	1r	1r	.	1r	.	1r	.	2cc	.	1r	.
4G'~	.	4G'~	.	4d'~	.	4g'~	.	4cc'~	.	.	.	.	.	.	.	.	.	.	.	.	.	.	.	.	.
4G'~	.	4G'~	.	4d'~	.	4g'~	.	4b-'~	.	2d	2G	2b-	2g	-kie	.	.	.	.	.	.	.	2b-	.	.	.
4G'~	.	4G'~	.	4d'~	.	4g'~	.	4b-'~	.	.	.	.	.	.	.	.	.	.	.	.	.	.	.	.	.
=	=	=	=	=	=	=	=	=	=	=	=	=	=	=	=	=	=	=	=	=	=	=	=	=	=
4B-'~	<	4B-'~	<	4d'~	<	4f'~	<	4cc'~	<	4d	4B-	4cc	4f	nie	1r	1r	.	1r	.	1r	.	4cc	<	1r	.
4B-'~	.	4B-'~	.	4d'~	.	4f'~	.	4b-'~	.	4d	4B-	4b-	4f	zdo-	.	.	.	.	.	.	.	4b-	.	.	.
8AL	.	8AL	.	4c	.	4f	.	4cc	.	4c	8AL	4cc	4f	-ła-	.	.	.	.	.	.	.	8fL	.	.	.
8G	.	8G	.	.	.	.	.	.	.	.	8G	.	.	.	.	.	.	.	.	.	.	8g	.	.	.
8F	.	8F	.	8AL	.	8fL	.	8ddL	.	8AL	8F	8ddL	8fL	-ją	.	.	.	.	.	.	.	8a	.	.	.
8EJ	[[	8EJ	[[	8cJ	[[	8gJ	[[	8eeJ	[[	8cJ	8EJ	8eeJ	8gJ	u-	.	.	.	.	.	.	.	8ccJ	[[	.	.
=	=	=	=	=	=	=	=	=	=	=	=	=	=	=	=	=	=	=	=	=	=	=	=	=	=
2D	f	2D	f	2d	f	2a	f	2ff	f	2d	2D	2ff	2a	-ga-	1r	1r	.	1r	.	1r	.	8ddL	f	1r	.
.	.	.	.	.	.	.	.	.	.	.	.	.	.	.	.	.	.	.	.	.	.	8ff	.	.	.
.	.	.	.	.	.	.	.	.	.	.	.	.	.	.	.	.	.	.	.	.	.	8ee	.	.	.
.	.	.	.	.	.	.	.	.	.	.	.	.	.	.	.	.	.	.	.	.	.	8ddJ	.	.	.
4D	.	4D	.	4c	.	4g	.	4ee	.	4c	4D	4ee	4g	-śić	.	.	.	.	.	.	.	8ccL	.	.	.
.	.	.	.	.	.	.	.	.	.	.	.	.	.	.	.	.	.	.	.	.	.	8a	.	.	.
16DLL	.	16DLL	.	4d	.	4f	.	4a	.	4d	4D	4a	4f	mi-	.	.	.	.	.	.	.	8cc	.	.	.
16E	.	16E	.	.	.	.	.	.	.	.	.	.	.	.	.	.	.	.	.	.	.	.	.	.	.
16F	.	16F	.	.	.	.	.	.	.	.	.	.	.	.	.	.	.	.	.	.	.	8ddJ	.	.	.
16GJJ	.	16GJJ	.	.	.	.	.	.	.	.	.	.	.	.	.	.	.	.	.	.	.	.	.	.	.
=	=	=	=	=	=	=	=	=	=	=	=	=	=	=	=	=	=	=	=	=	=	=	=	=	=
2.A	>	2.A	>	2.e	>	2.a	>	2dd	>	2e	2A	2dd	2a	-ło-	1r	1r	.	1r	.	1r	.	4ee	>	1r	.
.	.	.	.	.	.	.	.	.	.	.	.	.	.	.	.	.	.	.	.	.	.	8ccL	.	.	.
.	.	.	.	.	.	.	.	.	.	.	.	.	.	.	.	.	.	.	.	.	.	8aJ	.	.	.
.	.	.	.	.	.	.	.	4cc	.	4e	4A	4cc	4a	-ści,	.	.	.	.	.	.	.	4e	.	.	.
4A	]]	4A	]]	8cL	.	8eL	.	8aL	.	8eL	8AL	8aL	8aL	nie	.	.	.	.	.	.	.	8dL	.	.	.
.	.	.	.	8eJ	]]	8aJ	]]	[8ccJ	]]	8eJ	8AJ	8ccJ	8gJ	za-	.	.	.	.	.	.	.	8cJ	]]	.	.
=	=	=	=	=	=	=	=	=	=	=	=	=	=	=	=	=	=	=	=	=	=	=	=	=	=
2.B-	mf	2.B-	mf	2.d	mf	2.f	mf	2cc]	mf	2d	2B-	2cc	2f	-to-	1r	1r	.	1r	.	1r	.	4d	mf	1r	.
.	.	.	.	.	.	.	.	.	.	.	.	.	.	.	.	.	.	.	.	.	.	2f	.	.	.
.	.	.	.	.	.	.	.	4b-	.	4d	4B-	4b-	4f	-pią,	.	.	.	.	.	.	.	.	.	.	.
4A	.	4A	.	4c	.	8fL	.	8aL	.	8cL	8AL	8aL	8fL	nie	.	.	.	.	.	.	.	4r	.	.	.
.	.	.	.	.	.	[8aJ	.	[8ccJ	.	8cJ	8AJ	8ccJ	8aJ	za-	.	.	.	.	.	.	.	.	.	.	.
=	=	=	=	=	=	=	=	=	=	=	=	=	=	=	=	=	=	=	=	=	=	=	=	=	=
1G	.	1G	.	[1d	.	8aL]	.	8ccL]	.	2d	2G	2cc	2a	-to-	1r	1r	.	1r	.	1r	.	1r	.	1r	.
.	.	.	.	.	.	8g	.	8b-	.	.	.	.	.	.	.	.	.	.	.	.	.	.	.	.	.
.	.	.	.	.	.	8b-	.	8dd	.	.	.	.	.	.	.	.	.	.	.	.	.	.	.	.	.
.	.	.	.	.	.	8ddJ	.	8ggJ	.	.	.	.	.	.	.	.	.	.	.	.	.	.	.	.	.
.	.	.	.	.	.	8ggL	.	8bb-L	.	4d	4G	4b-	4g	-pią	.	.	.	.	.	.	.	.	.	.	.
.	.	.	.	.	.	8dd	.	8gg	.	.	.	.	.	.	.	.	.	.	.	.	.	.	.	.	.
.	.	.	.	.	.	8a	.	8dd	.	4d	4G	4a	4f	jej	.	.	.	.	.	.	.	.	.	.	.
.	.	.	.	.	.	[8fJ	.	8aJ	.	.	.	.	.	.	.	.	.	.	.	.	.	.	.	.	.
=	=	=	=	=	=	=	=	=	=	=	=	=	=	=	=	=	=	=	=	=	=	=	=	=	=
1C	.	1C	.	4d]	.	2f]	.	[2.g	.	(4d	1C	[2.g	(2f	rze-	1r	1r	.	1r	.	1r	.	1r	.	1r	.
.	.	.	.	8cL	.	.	.	.	.	2.c)	.	.	.	.	.	.	.	.	.	.	.	.	.	.	.
.	.	.	.	8B-J	.	.	.	.	.	.	.	.	.	.	.	.	.	.	.	.	.	.	.	.	.
.	.	.	.	8AL	.	2e	.	.	.	.	.	.	2e)	.	.	.	.	.	.	.	.	.	.	.	.
.	.	.	.	8G	.	.	.	.	.	.	.	.	.	.	.	.	.	.	.	.	.	.	.	.	.
.	.	.	.	8A	.	.	.	8gL]	.	.	.	(8gL]	.	.	.	.	.	.	.	.	.	.	.	.	.
.	.	.	.	8cJ	.	.	.	[8fJ	.	.	.	8fJ)	.	.	.	.	.	.	.	.	.	.	.	.	.
=	=	=	=	=	=	=	=	=	=	=	=	=	=	=	=	=	=	=	=	=	=	=	=	=	=
1FZ	.	1FZ	.	2B-	.	1cZ	.	1fZ]	.	1cZ	1FZ	1fZ	1fZ	-ki.	1r	1r	.	1r	.	1r	.	1r	.	1r	.
.	.	.	.	2AZ	.	.	.	.	.	.	.	.	.	.	.	.	.	.	.	.	.	.	.	.	.
=||	=||	=||	=||	=||	=||	=||	=||	=||	=||	=||	=||	=||	=||	=||	=||	=||	=||	=||	=||	=||	=||	=||	=||	=||	=||
!LO:TX:a:t=pizz.	!	!	!	!	!	!	!	!	!	!	!	!	!	!	!	!	!	!	!	!	!	!	!	!	!
4F	.	1r	.	1r	.	1r	.	1r	.	4c	4F	4a	4f	Mi-	2F:	8c:L 8f: 8a: 8cc: 8ff:	.	1r	.	2r	.	1r	.	1r	.
.	.	.	.	.	.	.	.	.	.	.	.	.	.	.	.	8a	.	.	.	.	.	.	.	.	.
8r	.	.	.	.	.	.	.	.	.	8cL	8FL	8aL	8fL	-łość	.	8cc	.	.	.	.	.	.	.	.	.
8F	.	.	.	.	.	.	.	.	.	8B-J	8FJ	8gJ	8fJ	po-	.	8ffJ	.	.	.	.	.	.	.	.	.
4G	.	.	.	.	.	.	.	.	.	8dL	8GL	8b-L	8gL	-tęż-	2G:	8d:L 8g: 8b-: 8dd: 8gg:	.	.	.	2r	.	.	.	.	.
.	.	.	.	.	.	.	.	.	.	8c	8G	8a	8d	-na	.	8b-	.	.	.	.	.	.	.	.	.
8r	.	.	.	.	.	.	.	.	.	8B-	8G	8f	8d	jest	.	8dd	.	.	.	.	.	.	.	.	.
16GLL	.	.	.	.	.	.	.	.	.	8cJ	8GJ	8gJ	8eJ	jak	.	8ggJ	.	.	.	.	.	.	.	.	.
16EJJ	.	.	.	.	.	.	.	.	.	.	.	.	.	.	.	.	.	.	.	.	.	.	.	.	.
=	=	=	=	=	=	=	=	=	=	=	=	=	=	=	=	=	=	=	=	=	=	=	=	=	=
4D	.	1r	.	1r	.	1r	.	1r	.	[8d	[8D	(8g	(8e	śmierć,	2D:	2d: 2f: 2a: 2dd: 2ff:	.	1r	.	2r	.	1r	.	1r	.
.	.	.	.	.	.	.	.	.	.	2.d]	2.D]	2.a)	2.f)	.	.	.	.	.	.	.	.	.	.	.	.
8r	.	.	.	.	.	.	.	.	.	.	.	.	.	.	.	.	.	.	.	.	.	.	.	.	.
8AA	.	.	.	.	.	.	.	.	.	.	.	.	.	.	.	.	.	.	.	.	.	.	.	.	.
4D	.	.	.	.	.	.	.	.	.	.	.	.	.	.	2r	8r	.	.	.	4.r	.	.	.	.	.
.	.	.	.	.	.	.	.	.	.	.	.	.	.	.	.	16aLL	.	.	.	.	.	.	.	.	.
.	.	.	.	.	.	.	.	.	.	.	.	.	.	.	.	16gJJ	.	.	.	.	.	.	.	.	.
8r	.	.	.	.	.	.	.	.	.	.	.	.	.	.	.	16fLL	.	.	.	.	.	.	.	.	.
.	.	.	.	.	.	.	.	.	.	.	.	.	.	.	.	16e	.	.	.	.	.	.	.	.	.
8E	.	.	.	.	.	.	.	.	.	8c	8E	8g	8g	jak	.	16d	.	.	.	8e	mf	.	.	.	.
.	.	.	.	.	.	.	.	.	.	.	.	.	.	.	.	16eJJ	.	.	.	.	.	.	.	.	.
=	=	=	=	=	=	=	=	=	=	=	=	=	=	=	=	=	=	=	=	=	=	=	=	=	=
4F	.	1r	.	1r	.	1r	.	1r	.	4c	4F	4a	4g	Ot-	2F:	8c:L 8f: 8a: 8cc: 8ff:	.	1r	.	2f	.	1r	.	1r	.
.	.	.	.	.	.	.	.	.	.	.	.	.	.	.	.	16AL	.	.	.	.	.	.	.	.	.
.	.	.	.	.	.	.	.	.	.	.	.	.	.	.	.	16cJJ	.	.	.	.	.	.	.	.	.
8r	.	.	.	.	.	.	.	.	.	8cL	8FL	8aL	8fL	-chłań	.	16fLL	.	.	.	.	.	.	.	.	.
.	.	.	.	.	.	.	.	.	.	.	.	.	.	.	.	16a	.	.	.	.	.	.	.	.	.
16CLL	.	.	.	.	.	.	.	.	.	8B-J	8FJ	8gJ	8fJ	nie-	.	16cc	.	.	.	.	.	.	.	.	.
16FJJ	.	.	.	.	.	.	.	.	.	.	.	.	.	.	.	16ffJJ	.	.	.	.	.	.	.	.	.
4G	.	.	.	.	.	.	.	.	.	8dL	8GL	8b-L	8gL	-prze-	2G:	8d:L 8g: 8b-: 8dd: 8gg:	.	.	.	12gL	.	.	.	.	.
.	.	.	.	.	.	.	.	.	.	.	.	.	.	.	.	.	.	.	.	12b-	.	.	.	.	.
.	.	.	.	.	.	.	.	.	.	8c	8G	8a	8d	-jed-	.	16B-L	.	.	.	.	.	.	.	.	.
.	.	.	.	.	.	.	.	.	.	.	.	.	.	.	.	.	.	.	.	12ddJ	.	.	.	.	.
.	.	.	.	.	.	.	.	.	.	.	.	.	.	.	.	16dJJ	.	.	.	.	.	.	.	.	.
16r	.	.	.	.	.	.	.	.	.	8B-	8G	8f	8d	-na-	.	16gLL	.	.	.	8gg'L	.	.	.	.	.
16GLL	.	.	.	.	.	.	.	.	.	.	.	.	.	.	.	16b-	.	.	.	.	.	.	.	.	.
16B-	.	.	.	.	.	.	.	.	.	8cJ	8GJ	8gJ	8eJ	-na	.	16dd	.	.	.	8b-'J	.	.	.	.	.
16GJJ	.	.	.	.	.	.	.	.	.	.	.	.	.	.	.	16ggJJ	.	.	.	.	.	.	.	.	.
=	=	=	=	=	=	=	=	=	=	=	=	=	=	=	=	=	=	=	=	=	=	=	=	=	=
4D	.	1r	.	1r	.	1r	.	1r	.	8AL	8DL	8gL	4.d	za-	2D:	4d: 4a: 4dd: 4ff: 4aa:	.	2.r	.	16aLL	.	2.r	.	2r	.
.	.	.	.	.	.	.	.	.	.	.	.	.	.	.	.	.	.	.	.	16dd	.	.	.	.	.
.	.	.	.	.	.	.	.	.	.	8AJ	8DJ	8aJ	.	-zdrość	.	.	.	.	.	16ff	.	.	.	.	.
.	.	.	.	.	.	.	.	.	.	.	.	.	.	.	.	.	.	.	.	16aaJJ	.	.	.	.	.
8r	.	.	.	.	.	.	.	.	.	2.d	2.D	2.a	.	jej.	.	4d: 4a: 4dd: 4ff:	.	.	.	16ffLL	.	.	.	.	.
.	.	.	.	.	.	.	.	.	.	.	.	.	.	.	.	.	.	.	.	16dd	.	.	.	.	.
8AA	.	.	.	.	.	.	.	.	.	.	.	.	8e	.	.	.	.	.	.	16a	.	.	.	.	.
.	.	.	.	.	.	.	.	.	.	.	.	.	.	.	.	.	.	.	.	16gJJ	.	.	.	.	.
4D	.	.	.	.	.	.	.	.	.	.	.	.	2f	.	2D:	4d: 4f: 4a: 4dd:	.	.	.	4f	.	.	.	4r	.
8r	.	.	.	.	.	.	.	.	.	.	.	.	.	.	.	4r	.	4D	.	4r	.	16gLL	.	4r	.
.	.	.	.	.	.	.	.	.	.	.	.	.	.	.	.	.	.	.	.	.	.	16a	.	.	.
8D	.	.	.	.	.	.	.	.	.	.	.	.	.	.	.	.	.	.	.	.	.	16g	.	.	.
.	.	.	.	.	.	.	.	.	.	.	.	.	.	.	.	.	.	.	.	.	.	16fJJ	.	.	.
=	=	=	=	=	=	=	=	=	=	=	=	=	=	=	=	=	=	=	=	=	=	=	=	=	=
4E-X	.	1r	.	1r	.	1r	.	1r	.	4B-	4E-X	4g	4f	Żar	1r	1r	.	8E-XL	.	1r	.	2g	.	1r	.
.	.	.	.	.	.	.	.	.	.	.	.	.	.	.	.	.	.	8BB-	.	.	.	.	.	.	.
8r	.	.	.	.	.	.	.	.	.	4B-	4E-	4g	4e-X	jej	.	.	.	8GG	.	.	.	.	.	.	.
8E-	.	.	.	.	.	.	.	.	.	.	.	.	.	.	.	.	.	8EE-XJ	.	.	.	.	.	.	.
4F	.	.	.	.	.	.	.	.	.	4B-	4F	4g	4e-	to	.	.	.	8FFL	.	.	.	4g	.	.	.
.	.	.	.	.	.	.	.	.	.	.	.	.	.	.	.	.	.	8C	.	.	.	.	.	.	.
8r	.	.	.	.	.	.	.	.	.	4c	4F	4a	4e-	żar	.	.	.	8F	.	.	.	4a	.	.	.
8F	.	.	.	.	.	.	.	.	.	.	.	.	.	.	.	.	.	8AJ	.	.	.	.	.	.	.
=	=	=	=	=	=	=	=	=	=	=	=	=	=	=	=	=	=	=	=	=	=	=	=	=	=
4G	.	2r	.	1r	.	1r	.	1r	.	(8cL	4G	(8aL	(8dL	o-	1r	1r	.	8GL	.	1r	.	8aL	.	1r	.
.	.	.	.	.	.	.	.	.	.	8dJ)	.	8b-J)	8gJ)	.	.	.	.	8DJ	.	.	.	[8b-J	.	.	.
8r	.	.	.	.	.	.	.	.	.	2d	2G	2b-	2g	-gnia,	.	.	.	16BB-LL	.	.	.	2b-]	.	.	.
.	.	.	.	.	.	.	.	.	.	.	.	.	.	.	.	.	.	16C	.	.	.	.	.	.	.
8D	.	.	.	.	.	.	.	.	.	.	.	.	.	.	.	.	.	16BB-	.	.	.	.	.	.	.
.	.	.	.	.	.	.	.	.	.	.	.	.	.	.	.	.	.	16AAJJ	.	.	.	.	.	.	.
4G	.	4r	.	.	.	.	.	.	.	.	.	.	.	.	.	.	.	4GG	.	.	.	.	.	.	.
4r	.	8r	.	.	.	.	.	.	.	8dL	8DL	8aL	8fL	pło-	.	.	.	4r	.	.	.	8aL	.	.	.
!	!	!LO:TX:a:t=arco	!	!	!	!	!	!	!	!	!	!	!	!	!	!	!	!	!	!	!	!	!	!	!
.	.	16ALL	mf	.	.	.	.	.	.	8AJ	8DJ	8gJ	8eJ	-mień	.	.	.	.	.	.	.	8gJ	.	.	.
.	.	16B-JJ	.	.	.	.	.	.	.	.	.	.	.	.	.	.	.	.	.	.	.	.	.	.	.
=	=	=	=	=	=	=	=	=	=	=	=	=	=	=	=	=	=	=	=	=	=	=	=	=	=
2.r	.	8cL	.	4r	.	2r	.	2.r	.	(8AL	4C	(8fL	2f	Pa-	2.r	1r	.	1r	.	1r	.	8fL	.	2r	.
.	.	8B-J	.	.	.	.	.	.	.	8cJ)	.	8gJ)	.	.	.	.	.	.	.	.	.	[8gJ	.	.	.
!	!	!	!	!LO:TX:a:t=arco	!	!	!	!	!	!	!	!	!	!	!	!	!	!	!	!	!	!	!	!	!
.	.	16GLL	.	8cL	mf	.	.	.	.	2.c	2.C	2.g	.	-na.	.	.	.	.	.	.	.	2.g]	.	.	.
.	.	16A	.	.	.	.	.	.	.	.	.	.	.	.	.	.	.	.	.	.	.	.	.	.	.
.	.	16G	.	8B-J	.	.	.	.	.	.	.	.	.	.	.	.	.	.	.	.	.	.	.	.	.
.	.	16FJJ	.	.	.	.	.	.	.	.	.	.	.	.	.	.	.	.	.	.	.	.	.	.	.
!	!	!	!	!	!	!LO:TX:a:t=arco	!	!	!	!	!	!	!	!	!	!	!	!	!	!	!	!	!	!	!
.	.	16ELL	.	16GLL	.	8cL	mf	.	.	.	.	.	2e	.	.	.	.	.	.	.	.	.	.	4.r	.
.	.	16F	.	16A	.	.	.	.	.	.	.	.	.	.	.	.	.	.	.	.	.	.	.	.	.
.	.	16E	.	16G	.	8B-J	.	.	.	.	.	.	.	.	.	.	.	.	.	.	.	.	.	.	.
.	.	16DJJ	.	16FJJ	.	.	.	.	.	.	.	.	.	.	.	.	.	.	.	.	.	.	.	.	.
!LO:TX:a:t=arco	!	!	!	!	!	!	!	!LO:TX:a:t=arco	!	!	!	!	!	!	!	!	!	!	!	!	!	!	!	!	!
4C	.	4C	.	16ELL	.	16GLL	.	16cLL	mf	.	.	.	.	.	4C	.	.	.	.	.	.	.	.	.	.
.	.	.	.	16G	.	16c	.	16e	.	.	.	.	.	.	.	.	.	.	.	.	.	.	.	.	.
.	.	.	.	16A	.	16d	.	16f	.	.	.	.	.	.	.	.	.	.	.	.	.	.	.	8gg	.
.	.	.	.	16B-JJ	.	16eJJ	.	16gJJ	.	.	.	.	.	.	.	.	.	.	.	.	.	.	.	.	.
=	=	=	=	=	=	=	=	=	=	=	=	=	=	=	=	=	=	=	=	=	=	=	=	=	=
2F	.	2F	.	4.c	.	2f	.	4.a	.	4c	4F	4a	4f	Mi-	4F: 4A: 4c:	4f: 4a: 4cc: 4ff:	.	1r	.	1r	.	1r	.	4.aa	.
.	.	.	.	.	.	.	.	.	.	8cL	8FL	8aL	8fL	-łość	4r	4r	.	.	.	.	.	.	.	.	.
.	.	.	.	8B-	.	.	.	8g	.	8B-J	8FJ	8gJ	8fJ	po-	.	.	.	.	.	.	.	.	.	8gg	.
2G	.	2G	.	8dL	.	8g	.	8b-L	.	8dL	8GL	8b-L	8gL	-tęż-	2r	4g: 4b-: 4dd: 4gg:	.	.	.	.	.	.	.	8bb-L	.
.	.	.	.	8c	.	4d	.	8a	.	8c	8G	8a	8d	-na	.	.	.	.	.	.	.	.	.	8aa	.
.	.	.	.	8B-	.	.	.	8f	.	8B-	8G	8f	8d	jest	.	4r	.	.	.	.	.	.	.	8ff	.
.	.	.	.	8cJ	.	[8e	.	[8gJ	.	8cJ	8GJ	8gJ	8eJ	jak	.	.	.	.	.	.	.	.	.	[8ggJ	.
=	=	=	=	=	=	=	=	=	=	=	=	=	=	=	=	=	=	=	=	=	=	=	=	=	=
[8D	.	[8D	.	[8d	.	8e]	.	8g]	.	[8d	[8D	(8g	(8e	śmierć,	2D:	4d: 4f: 4a: 4dd: 4aa:	.	1r	.	2.r	.	1r	.	8gg]	.
2.D]	.	2.D]	.	2.d]	.	2.f	.	2.a	.	2.d]	2.D]	2.a)	2.f)	.	.	.	.	.	.	.	.	.	.	4aa	.
.	.	.	.	.	.	.	.	.	.	.	.	.	.	.	.	4r	.	.	.	.	.	.	.	.	.
.	.	.	.	.	.	.	.	.	.	.	.	.	.	.	.	.	.	.	.	.	.	.	.	16r	.
.	.	.	.	.	.	.	.	.	.	.	.	.	.	.	.	.	.	.	.	.	.	.	.	16ee	.
.	.	.	.	.	.	.	.	.	.	.	.	.	.	.	2r	2r	.	.	.	.	.	.	.	16ffLL	.
.	.	.	.	.	.	.	.	.	.	.	.	.	.	.	.	.	.	.	.	.	.	.	.	16ee	.
.	.	.	.	.	.	.	.	.	.	.	.	.	.	.	.	.	.	.	.	.	.	.	.	16dd	.
.	.	.	.	.	.	.	.	.	.	.	.	.	.	.	.	.	.	.	.	.	.	.	.	16ccJJ	.
.	.	.	.	.	.	.	.	.	.	.	.	.	.	.	.	.	.	.	.	8r	.	.	.	16ddLL	.
.	.	.	.	.	.	.	.	.	.	.	.	.	.	.	.	.	.	.	.	.	.	.	.	16ee	.
8E	.	8E	.	8c	.	8e	.	8g	.	8c	8E	8g	8g	jak	.	.	.	.	.	8g	.	.	.	16ff	.
.	.	.	.	.	.	.	.	.	.	.	.	.	.	.	.	.	.	.	.	.	.	.	.	[16ggJJ	.
=	=	=	=	=	=	=	=	=	=	=	=	=	=	=	=	=	=	=	=	=	=	=	=	=	=
2F	.	2F	.	4.c	.	4g	.	4.a	.	4c	4F	4a	4g	Ot-	2F:	4c: 4f: 4a: 4cc: 4aa:	.	1r	.	4.a	.	1r	.	8ggL]	.
.	.	.	.	.	.	.	.	.	.	.	.	.	.	.	.	.	.	.	.	.	.	.	.	8ffJ	.
.	.	.	.	.	.	4f	.	.	.	8cL	8FL	8aL	8fL	-chłań	.	4r	.	.	.	.	.	.	.	4cc	.
.	.	.	.	8B-	.	.	.	8g	.	8B-J	8FJ	8gJ	8fJ	nie-	.	.	.	.	.	8g	.	.	.	.	.
2G	.	2G	.	8dL	.	8g	.	8b-L	.	8dL	8GL	8b-L	8gL	-prze-	2r	4g: 4b-: 4dd: 4gg: 4bb-:	.	.	.	8b-L	.	.	.	2r	.
.	.	.	.	8c	.	4d	.	8a	.	8c	8G	8a	8d	-jed-	.	.	.	.	.	8a	.	.	.	.	.
.	.	.	.	8B-	.	.	.	8f	.	8B-	8G	8f	8d	-na-	.	4r	.	.	.	8f	.	.	.	.	.
.	.	.	.	8cJ	.	8e	.	[8gJ	.	8cJ	8GJ	8gJ	8eJ	-na	.	.	.	.	.	[8gJ	.	.	.	.	.
=	=	=	=	=	=	=	=	=	=	=	=	=	=	=	=	=	=	=	=	=	=	=	=	=	=
1D	.	1D	.	2A	.	4.d	.	8gL]	.	8AL	8DL	8gL	4.d	za-	2D:	4d: 4a: 4dd: 4ff: 4aa:	.	1r	.	8g]	.	1r	.	1r	.
.	.	.	.	.	.	.	.	8aJ	.	8AJ	8DJ	8aJ	.	-zdrość	.	.	.	.	.	4a	.	.	.	.	.
.	.	.	.	.	.	.	.	2.a	.	2.d	2.D	2.a	.	jej.	.	4r	.	.	.	.	.	.	.	.	.
.	.	.	.	.	.	8e	.	.	.	.	.	.	8e	.	.	.	.	.	.	16r	.	.	.	.	.
.	.	.	.	.	.	.	.	.	.	.	.	.	.	.	.	.	.	.	.	16g	.	.	.	.	.
.	.	.	.	2d	.	2f	.	.	.	.	.	.	2f	.	2r	2r	.	.	.	8f'L	.	.	.	.	.
.	.	.	.	.	.	.	.	.	.	.	.	.	.	.	.	.	.	.	.	16dL	.	.	.	.	.
.	.	.	.	.	.	.	.	.	.	.	.	.	.	.	.	.	.	.	.	16cJJ	.	.	.	.	.
.	.	.	.	.	.	.	.	.	.	.	.	.	.	.	.	.	.	.	.	16dLL	.	.	.	.	.
.	.	.	.	.	.	.	.	.	.	.	.	.	.	.	.	.	.	.	.	16f	.	.	.	.	.
.	.	.	.	.	.	.	.	.	.	.	.	.	.	.	.	.	.	.	.	16g	.	.	.	.	.
.	.	.	.	.	.	.	.	.	.	.	.	.	.	.	.	.	.	.	.	16aJJ	.	.	.	.	.
=	=	=	=	=	=	=	=	=	=	=	=	=	=	=	=	=	=	=	=	=	=	=	=	=	=
2E-X	.	2E-X	.	8r	.	2g	.	8r	.	4B-	4E-X	4g	4f	Żar	1r	1r	.	2r	.	2g	.	1r	.	1r	.
.	.	.	.	8GL	.	.	.	8b-L	.	.	.	.	.	.	.	.	.	.	.	.	.	.	.	.	.
.	.	.	.	8B-	.	.	.	8ee-X	.	4B-	4E-	4g	4e-X	jej	.	.	.	.	.	.	.	.	.	.	.
.	.	.	.	[8e-XJ	.	.	.	[8bb-J	.	.	.	.	.	.	.	.	.	.	.	.	.	.	.	.	.
2F	.	2F	.	8e-L]	.	[2a	.	8bb-L]	.	4B-	4F	4g	4e-	to	.	.	.	2r	.	2r	.	.	.	.	.
.	.	.	.	8A	.	.	.	8cc	.	.	.	.	.	.	.	.	.	.	.	.	.	.	.	.	.
.	.	.	.	8c	.	.	.	8ff	.	4c	4F	4a	4e-	żar	.	.	.	.	.	.	.	.	.	.	.
.	.	.	.	[8fJ	.	.	.	[8cccJ	.	.	.	.	.	.	.	.	.	.	.	.	.	.	.	.	.
=	=	=	=	=	=	=	=	=	=	=	=	=	=	=	=	=	=	=	=	=	=	=	=	=	=
2.G	.	2.G	.	8fL]	.	8aL]	.	8cccL]	.	(8cL	4G	(8aL	(8dL	o-	1r	1r	.	1r	.	2r	.	1r	.	1r	.
.	.	.	.	8d	.	[8gJ	.	8bb-	.	8dJ)	.	8b-J)	8gJ)	.	.	.	.	.	.	.	.	.	.	.	.
.	.	.	.	8B-	.	2g]	.	8gg	.	2d	2G	2b-	2g	-gnia,	.	.	.	.	.	.	.	.	.	.	.
.	.	.	.	8GJ	.	.	.	8ddJ	.	.	.	.	.	.	.	.	.	.	.	.	.	.	.	.	.
.	.	.	.	4.d	.	.	.	4b-	.	.	.	.	.	.	.	.	.	.	.	16gLL	.	.	.	.	.
.	.	.	.	.	.	.	.	.	.	.	.	.	.	.	.	.	.	.	.	16a	.	.	.	.	.
.	.	.	.	.	.	.	.	.	.	.	.	.	.	.	.	.	.	.	.	16b-	.	.	.	.	.
.	.	.	.	.	.	.	.	.	.	.	.	.	.	.	.	.	.	.	.	16ccJJ	.	.	.	.	.
4D	.	4D	.	.	.	8fL	.	8aL	.	8dL	8DL	8aL	8fL	pło-	.	.	.	.	.	8dd'L	.	.	.	.	.
.	.	.	.	8A	.	8eJ	.	8gJ	.	8AJ	8DJ	8gJ	8eJ	-mień	.	.	.	.	.	8a'J	.	.	.	.	.
=	=	=	=	=	=	=	=	=	=	=	=	=	=	=	=	=	=	=	=	=	=	=	=	=	=
1C	.	1C	.	1c	.	2f	.	8fL	.	(8AL	4C	(8fL	2f	Pa-	2.r	4.r	.	1r	.	16ccLL	.	2.r	.	2.r	.
.	.	.	.	.	.	.	.	.	.	.	.	.	.	.	.	.	.	.	.	16g	.	.	.	.	.
.	.	.	.	.	.	.	.	8gJ	.	8cJ)	.	8gJ)	.	.	.	.	.	.	.	16e	.	.	.	.	.
.	.	.	.	.	.	.	.	.	.	.	.	.	.	.	.	.	.	.	.	16cJJ	.	.	.	.	.
.	.	.	.	.	.	.	.	2.g	.	2c	2C	2g	.	-na.	.	.	.	.	.	16GLL	.	.	.	.	.
.	.	.	.	.	.	.	.	.	.	.	.	.	.	.	.	.	.	.	.	16c	.	.	.	.	.
.	.	.	.	.	.	.	.	.	.	.	.	.	.	.	.	16r	.	.	.	16e	.	.	.	.	.
.	.	.	.	.	.	.	.	.	.	.	.	.	.	.	.	16gg	.	.	.	16gJJ	.	.	.	.	.
.	.	.	.	.	.	2e	.	.	.	.	.	.	4e	.	.	16eeLL	.	.	.	4cc	.	.	.	.	.
.	.	.	.	.	.	.	.	.	.	.	.	.	.	.	.	16cc	.	.	.	.	.	.	.	.	.
.	.	.	.	.	.	.	.	.	.	.	.	.	.	.	.	16g	.	.	.	.	.	.	.	.	.
.	.	.	.	.	.	.	.	.	.	.	.	.	.	.	.	16eJJ	.	.	.	.	.	.	.	.	.
.	.	.	.	.	.	.	.	.	.	8dL	8CL	8aL	8fL	Wo-	16cLL	16r	.	.	.	4r	.	8aL	.	8ffL	.
.	.	.	.	.	.	.	.	.	.	.	.	.	.	.	16G	16r	.	.	.	.	.	.	.	.	.
.	.	.	.	.	.	.	.	.	.	8eJ	8CJ	8b-J	8gJ	-dy	16E	8r	.	.	.	.	.	8b-J	.	8ggJ	.
.	.	.	.	.	.	.	.	.	.	.	.	.	.	.	16CJJ	.	.	.	.	.	.	.	.	.	.
=	=	=	=	=	=	=	=	=	=	=	=	=	=	=	=	=	=	=	=	=	=	=	=	=	=
4G'~	.	4G'~	.	4d'~	.	4g'~	.	4cc'~	.	2d	2G	2cc	2g	wiel-	4GG	4r	.	8FFL	.	1r	.	2cc	.	2aa	.
.	.	.	.	.	.	.	.	.	.	.	.	.	.	.	.	.	.	8BB-	.	.	.	.	.	.	.
4G'~	.	4G'~	.	4d'~	.	4g'~	.	4cc'~	.	.	.	.	.	.	4r	2g: 2b-: 2dd: 2gg:	.	8D	.	.	.	.	.	.	.
.	.	.	.	.	.	.	.	.	.	.	.	.	.	.	.	.	.	8GJ	.	.	.	.	.	.	.
4G'~	.	4G'~	.	4d'~	.	4g'~	.	4b-'~	.	2d	2G	2b-	2g	-kie	2r	.	.	8B-L	.	.	.	2b-	.	2gg	.
.	.	.	.	.	.	.	.	.	.	.	.	.	.	.	.	.	.	8AJ	.	.	.	.	.	.	.
4G'~	.	4G'~	.	4d'~	.	4g'~	.	4b-'~	.	.	.	.	.	.	.	4r	.	16B-LL	.	.	.	.	.	.	.
.	.	.	.	.	.	.	.	.	.	.	.	.	.	.	.	.	.	16A	.	.	.	.	.	.	.
.	.	.	.	.	.	.	.	.	.	.	.	.	.	.	.	.	.	16G	.	.	.	.	.	.	.
.	.	.	.	.	.	.	.	.	.	.	.	.	.	.	.	.	.	16AJJ	.	.	.	.	.	.	.
=	=	=	=	=	=	=	=	=	=	=	=	=	=	=	=	=	=	=	=	=	=	=	=	=	=
4B-'~	<	4B-'~	<	4d'~	<	4f'~	<	4cc'~	<	4d	4B-	4cc	4f	nie	2BB-: 2F: 2B-:	2d: 2f: 2cc: 2ff:	.	8B-L	<	1r	.	4cc	<	4aa	<
.	.	.	.	.	.	.	.	.	.	.	.	.	.	.	.	.	.	[8c	.	.	.	.	.	.	.
4B-'~	.	4B-'~	.	4d'~	.	4f'~	.	4b-'~	.	4d	4B-	4b-	4f	zdo-	.	.	.	8c]	.	.	.	4b-	.	8ggL	.
.	.	.	.	.	.	.	.	.	.	.	.	.	.	.	.	.	.	8dJ	.	.	.	.	.	8ffJ	.
8AL	.	8AL	.	4c	.	4f	.	4cc	.	4c	8AL	4cc	4f	-ła-	2r	2r	.	8FL	.	.	.	8fL	.	4cc	.
8G	.	8G	.	.	.	.	.	.	.	.	8G	.	.	.	.	.	.	8DJ	.	.	.	8g	.	.	.
8F	.	8F	.	8AL	.	8fL	.	8ddL	.	8AL	8F	8ddL	8fL	-ją	.	.	.	16CLL	.	.	.	8a	.	8ddL	.
.	.	.	.	.	.	.	.	.	.	.	.	.	.	.	.	.	.	16AA	.	.	.	.	.	.	.
8EJ	[[	8EJ	[[	8cJ	[[	8gJ	[[	8eeJ	[[	8cJ	8EJ	8eeJ	8gJ	u-	.	.	.	16GG	.	.	.	8ccJ	[[	8eeJ	[[
.	.	.	.	.	.	.	.	.	.	.	.	.	.	.	.	.	.	16EEJJ	[[	.	.	.	.	.	.
=	=	=	=	=	=	=	=	=	=	=	=	=	=	=	=	=	=	=	=	=	=	=	=	=	=
2D	f	2D	f	2d	f	2a	f	2ff	f	2d	2D	2ff	2a	-ga-	2D: 2A:	2d: 2a: 2dd: 2ff: 2aa:	f	8DDL	f	1r	.	8ddL	f	8ffL	f
.	.	.	.	.	.	.	.	.	.	.	.	.	.	.	.	.	.	8AA	.	.	.	8ff	.	8aa	.
.	.	.	.	.	.	.	.	.	.	.	.	.	.	.	.	.	.	8E	.	.	.	8ee	.	8gg	.
.	.	.	.	.	.	.	.	.	.	.	.	.	.	.	.	.	.	8FJ	.	.	.	8ddJ	.	8ffJ	.
4D	.	4D	.	4c	.	4g	.	4ee	.	4c	4D	4ee	4g	-śić	2r	2r	.	8EL	.	.	.	8ccL	.	4ee	.
.	.	.	.	.	.	.	.	.	.	.	.	.	.	.	.	.	.	8D	.	.	.	[8a	.	.	.
16DLL	.	16DLL	.	4d	.	4f	.	4a	.	4d	4D	4a	4f	mi-	.	.	.	8F	.	.	.	8a]	.	8aaL	.
16E	.	16E	.	.	.	.	.	.	.	.	.	.	.	.	.	.	.	.	.	.	.	.	.	.	.
16F	.	16F	.	.	.	.	.	.	.	.	.	.	.	.	.	.	.	8GJ	.	.	.	8ffJ	.	8cccJ	.
16GJJ	.	16GJJ	.	.	.	.	.	.	.	.	.	.	.	.	.	.	.	.	.	.	.	.	.	.	.
=	=	=	=	=	=	=	=	=	=	=	=	=	=	=	=	=	=	=	=	=	=	=	=	=	=
2.A	>	2.A	>	2.e	>	2.a	>	2dd	>	2e	2A	2dd	2a	-ło-	2AA: 2E: 2A:	2e: 2a: 2cc: 2ee: 2aa:	.	4A	.	1r	.	4ee	>	2ddd	>
.	.	.	.	.	.	.	.	.	.	.	.	.	.	.	.	.	.	2AA	.	.	.	8ccL	.	.	.
.	.	.	.	.	.	.	.	.	.	.	.	.	.	.	.	.	.	.	.	.	.	8aJ	.	.	.
.	.	.	.	.	.	.	.	4cc	.	4e	4A	4cc	4a	-ści,	2r	2r	.	.	.	.	.	4e	.	4ccc	.
4A	]]	4A	]]	8cL	.	8eL	.	8aL	.	8eL	8AL	8aL	8aL	nie	.	.	.	4r	.	.	.	8aL	.	16aaLL	.
.	.	.	.	.	.	.	.	.	.	.	.	.	.	.	.	.	.	.	.	.	.	.	.	16gg	.
.	.	.	.	8eJ	]]	8aJ	]]	[8ccJ	]]	8eJ	8AJ	8ccJ	8gJ	za-	.	.	.	.	.	.	.	[8ccJ	]]	16ff	.
.	.	.	.	.	.	.	.	.	.	.	.	.	.	.	.	.	.	.	.	.	.	.	.	[16eeJJ	]]
=	=	=	=	=	=	=	=	=	=	=	=	=	=	=	=	=	=	=	=	=	=	=	=	=	=
2.B-	mf	2.B-	mf	2.d	mf	2.f	mf	2cc]	mf	2d	2B-	2cc	2f	-to-	1r	1r	.	1r	.	1r	.	4cc]	mf	4ee]	mf
.	.	.	.	.	.	.	.	.	.	.	.	.	.	.	.	.	.	.	.	.	.	4.dd	.	4.ff	.
.	.	.	.	.	.	.	.	4b-	.	4d	4B-	4b-	4f	-pią,	.	.	.	.	.	.	.	.	.	.	.
.	.	.	.	.	.	.	.	.	.	.	.	.	.	.	.	.	.	.	.	.	.	8r	.	8r	.
4A	.	4A	.	4c	.	8fL	.	8b-L	.	8cL	8AL	8aL	8fL	nie	.	.	.	.	.	.	.	8aL	.	8ffL	.
.	.	.	.	.	.	[8aJ	.	[8ccJ	.	8cJ	8AJ	8ccJ	8aJ	za-	.	.	.	.	.	.	.	[8ccJ	.	[8eeJ	.
=	=	=	=	=	=	=	=	=	=	=	=	=	=	=	=	=	=	=	=	=	=	=	=	=	=
1G	.	1G	.	1d	.	8aL]	.	8ccL]	.	2d	2G	2cc	2a	-to-	1r	1r	.	1r	.	2r	.	4cc]	.	4ee]	.
.	.	.	.	.	.	8g	.	8b-	.	.	.	.	.	.	.	.	.	.	.	.	.	.	.	.	.
.	.	.	.	.	.	8b-	.	8dd	.	.	.	.	.	.	.	.	.	.	.	.	.	4.dd	.	4.ff	.
.	.	.	.	.	.	8ddJ	.	8ggJ	.	.	.	.	.	.	.	.	.	.	.	.	.	.	.	.	.
.	.	.	.	.	.	8ggL	.	8bb-L	.	4d	4G	4b-	4g	-pią	.	.	.	.	.	2r	.	.	.	.	.
.	.	.	.	.	.	8b-	.	8dd	.	.	.	.	.	.	.	.	.	.	.	.	.	8r	.	8r	.
.	.	.	.	.	.	8a	.	8ff	.	4d	4G	4a	4f	jej	.	.	.	.	.	.	.	4r	.	4r	.
.	.	.	.	.	.	8fJ	.	8aaJ	.	.	.	.	.	.	.	.	.	.	.	.	.	.	.	.	.
=	=	=	=	=	=	=	=	=	=	=	=	=	=	=	=	=	=	=	=	=	=	=	=	=	=
1C	mp	1C	mp	4d	mp	2f	mp	[2gg	mp	(4d	1C	[2.g	(2f	rze-	1r	1r	.	1r	.	1r	.	1r	.	1r	.
.	.	.	.	4c	.	.	.	.	.	2.c)	.	.	.	.	.	.	.	.	.	.	.	.	.	.	.
.	.	.	.	8B-L	.	8eL	.	4gg_	.	.	.	.	2e)	.	.	.	.	.	.	.	.	.	.	.	.
.	.	.	.	8A	.	8d	.	.	.	.	.	.	.	.	.	.	.	.	.	.	.	.	.	.	.
.	.	.	.	8G	.	8e	.	8ggL]	.	.	.	(8gL]	.	.	.	.	.	.	.	.	.	.	.	.	.
.	.	.	.	[8AJ	.	[8cJ	.	[8ffJ	.	.	.	8fJ)	.	.	.	.	.	.	.	.	.	.	.	.	.
=||	=||	=||	=||	=||	=||	=||	=||	=||	=||	=||	=||	=||	=||	=||	=||	=||	=||	=||	=||	=||	=||	=||	=||	=||	=||
1r	.	1F	mf	4A]	mf	2c]	mf	4ff]	mf	1c	1F	1f	1f	-ki.	2F:	8c:L 8f: 8a: 8cc: 8ff:	mf mf	1r	.	2r	.	1r	.	1r	.
.	.	.	.	.	.	.	.	.	.	.	.	.	.	.	.	8c	.	.	.	.	.	.	.	.	.
.	.	.	.	4G	.	.	.	4ee	.	.	.	.	.	.	.	8f	.	.	.	.	.	.	.	.	.
.	.	.	.	.	.	.	.	.	.	.	.	.	.	.	.	8aJ	.	.	.	.	.	.	.	.	.
.	.	.	.	4A	.	[2f	.	4cc	.	.	.	.	.	.	2r	8ccL	.	.	.	2r	.	.	.	.	.
.	.	.	.	.	.	.	.	.	.	.	.	.	.	.	.	8a	.	.	.	.	.	.	.	.	.
.	.	.	.	[4c	.	.	.	4a	.	.	.	.	.	.	.	8ff	.	.	.	.	.	.	.	.	.
.	.	.	.	.	.	.	.	.	.	.	.	.	.	.	.	8ccJ	.	.	.	.	.	.	.	.	.
*	*	*	*	*	*	*	*	*	*	*v	*v	*	*	*	*	*	*	*	*	*	*	*	*	*	*
*	*	*	*	*	*	*	*	*	*	*	*v	*v	*	*	*	*	*	*	*	*	*	*	*	*
=	=	=	=	=	=	=	=	=	=	=	=	=	=	=	=	=	=	=	=	=	=	=	=
1r	.	2.BB-	.	4c]	.	2f]	.	4dd	.	1r	1r	.	2B-:	8d:L 8f: 8b-: 8dd:	.	1r	.	1r	.	1r	.	1r	.
.	.	.	.	.	.	.	.	.	.	.	.	.	.	8f	.	.	.	.	.	.	.	.	.
.	.	.	.	2.B-	.	.	.	4cc	.	.	.	.	.	8b-	.	.	.	.	.	.	.	.	.
.	.	.	.	.	.	.	.	.	.	.	.	.	.	8ddJ	.	.	.	.	.	.	.	.	.
.	.	.	.	.	.	4d	.	4f	.	.	.	.	2r	8ffL	.	.	.	.	.	.	.	.	.
.	.	.	.	.	.	.	.	.	.	.	.	.	.	8dd	.	.	.	.	.	.	.	.	.
.	.	4C	.	.	.	4e	.	4g	.	.	.	.	.	8bb-	.	.	.	.	.	.	.	.	.
.	.	.	.	.	.	.	.	.	.	.	.	.	.	8aaJ	.	.	.	.	.	.	.	.	.
=	=	=	=	=	=	=	=	=	=	=	=	=	=	=	=	=	=	=	=	=	=	=	=
1r	.	1D	.	4A	.	4f	.	4a	.	1r	1r	.	2D:	8A:L 8d: 8f: 8a: 8dd: 8ff:	.	1r	.	1r	.	1r	.	1r	.
.	.	.	.	.	.	.	.	.	.	.	.	.	.	8f	.	.	.	.	.	.	.	.	.
.	.	.	.	4d	.	4a	.	4ff	.	.	.	.	.	8a	.	.	.	.	.	.	.	.	.
.	.	.	.	.	.	.	.	.	.	.	.	.	.	8ddJ	.	.	.	.	.	.	.	.	.
.	.	.	.	4c	.	4g	.	4ee	.	.	.	.	2r	8ffL	.	.	.	.	.	.	.	.	.
.	.	.	.	.	.	.	.	.	.	.	.	.	.	8ee	.	.	.	.	.	.	.	.	.
.	.	.	.	[4A	.	4f	.	4a	.	.	.	.	.	8dd	.	.	.	.	.	.	.	.	.
.	.	.	.	.	.	.	.	.	.	.	.	.	.	8aJ	.	.	.	.	.	.	.	.	.
=	=	=	=	=	=	=	=	=	=	=	=	=	=	=	=	=	=	=	=	=	=	=	=
1r	.	1AA	.	2.A_	.	2.e	.	2dd	.	1r	1r	.	2A:	8c:L 8e: 8a: 8cc: 8ee:	.	1r	.	1r	.	1r	.	1r	.
.	.	.	.	.	.	.	.	.	.	.	.	.	.	8e	.	.	.	.	.	.	.	.	.
.	.	.	.	.	.	.	.	.	.	.	.	.	.	8a	.	.	.	.	.	.	.	.	.
.	.	.	.	.	.	.	.	.	.	.	.	.	.	8ccJ	.	.	.	.	.	.	.	.	.
.	.	.	.	.	.	.	.	4.cc	.	.	.	.	2r	8eeL	.	.	.	.	.	.	.	.	.
.	.	.	.	.	.	.	.	.	.	.	.	.	.	8cc	.	.	.	.	.	.	.	.	.
.	.	.	.	8A]	.	4g	.	.	.	.	.	.	.	8aa	.	.	.	.	.	.	.	.	.
.	.	.	.	8A	.	.	.	8cc	.	.	.	.	.	8ggJ	.	.	.	.	.	.	.	.	.
=	=	=	=	=	=	=	=	=	=	=	=	=	=	=	=	=	=	=	=	=	=	=	=
1r	.	2.BB-	.	4d	.	4f	.	4ff	.	1r	1r	.	2B-:	8d:L 8f: 8b-: 8dd: 8ff:	.	1r	.	1r	.	1r	.	1r	.
.	.	.	.	.	.	.	.	.	.	.	.	.	.	8d	.	.	.	.	.	.	.	.	.
.	.	.	.	4c	.	4g	.	4ee	.	.	.	.	.	8f	.	.	.	.	.	.	.	.	.
.	.	.	.	.	.	.	.	.	.	.	.	.	.	8b-J	.	.	.	.	.	.	.	.	.
.	.	.	.	4A	.	4f	.	4cc	.	.	.	.	2r	8ddL	.	.	.	.	.	.	.	.	.
.	.	.	.	.	.	.	.	.	.	.	.	.	.	8b-	.	.	.	.	.	.	.	.	.
.	.	4AA	.	4F	.	4c	.	4a	.	.	.	.	.	8ff	.	.	.	.	.	.	.	.	.
.	.	.	.	.	.	.	.	.	.	.	.	.	.	8eeJ	.	.	.	.	.	.	.	.	.
=	=	=	=	=	=	=	=	=	=	=	=	=	=	=	=	=	=	=	=	=	=	=	=
1r	.	1GG	.	4A	.	2.d	.	4cc	.	1r	1r	.	2G:	8d:L 8g: 8b-: 8dd: 8gg:	.	1r	.	1r	.	1r	.	1r	.
.	.	.	.	.	.	.	.	.	.	.	.	.	.	8b-	.	.	.	.	.	.	.	.	.
.	.	.	.	4G	.	.	.	4b-	.	.	.	.	.	8dd	.	.	.	.	.	.	.	.	.
.	.	.	.	.	.	.	.	.	.	.	.	.	.	8ggJ	.	.	.	.	.	.	.	.	.
.	.	.	.	4B-	.	.	.	4f	.	.	.	.	2r	8bb-L	.	.	.	.	.	.	.	.	.
.	.	.	.	.	.	.	.	.	.	.	.	.	.	8aa	.	.	.	.	.	.	.	.	.
.	.	.	.	4c	.	4e	.	4g	.	.	.	.	.	8gg	.	.	.	.	.	.	.	.	.
.	.	.	.	.	.	.	.	.	.	.	.	.	.	8eeJ	.	.	.	.	.	.	.	.	.
=	=	=	=	=	=	=	=	=	=	=	=	=	=	=	=	=	=	=	=	=	=	=	=
1r	.	1D	.	4A	.	4f	.	4a	.	1r	1r	.	2D:	8A:L 8d: 8f: 8a: 8dd: 8ff:	.	1r	.	1r	.	2.r	.	2.r	.
.	.	.	.	.	.	.	.	.	.	.	.	.	.	8f	.	.	.	.	.	.	.	.	.
.	.	.	.	4F	.	4a	.	4dd	.	.	.	.	.	8a	.	.	.	.	.	.	.	.	.
.	.	.	.	.	.	.	.	.	.	.	.	.	.	8ddJ	.	.	.	.	.	.	.	.	.
.	.	.	.	4G	.	4e	.	4cc	.	.	.	.	2r	8ffL	.	.	.	.	.	.	.	.	.
.	.	.	.	.	.	.	.	.	.	.	.	.	.	8aa	.	.	.	.	.	.	.	.	.
.	.	.	.	4A	.	4d	.	4f	.	.	.	.	.	8dd	.	.	.	.	.	4d	mf <	4f	mf <
.	.	.	.	.	.	.	.	.	.	.	.	.	.	8ffJ	.	.	.	.	.	.	.	.	.
=	=	=	=	=	=	=	=	=	=	=	=	=	=	=	=	=	=	=	=	=	=	=	=
2.r	.	1C	<[	4G	<	8eL	<	8gL	<	1r	1r	.	2C: 2G:	2c: 2e: 2g: 2cc: 2ee: 2gg:	.	1r	.	1r	.	8eL	.	8gL	.
.	.	.	.	.	.	8fJ	.	8aJ	.	.	.	.	.	.	.	.	.	.	.	8fJ	.	8aJ	.
.	.	.	.	2.c	[[	8gL	.	16b-LL	.	.	.	.	.	.	.	.	.	.	.	8gL	.	16b-LL	.
.	.	.	.	.	.	.	.	16a	.	.	.	.	.	.	.	.	.	.	.	.	.	16a	.
.	.	.	.	.	.	16fL	.	16b-	.	.	.	.	.	.	.	.	.	.	.	16fL	.	16b-	.
.	.	.	.	.	.	16eJJ	.	16ccJJ	.	.	.	.	.	.	.	.	.	.	.	16eJJ	.	16ccJJ	.
.	.	.	.	.	.	16fLL	.	16ddLL	.	.	.	.	4.r	2r	.	.	.	.	.	16fLL	.	16ddLL	.
.	.	.	.	.	.	16g	.	16ee	.	.	.	.	.	.	.	.	.	.	.	16g	.	16ee	.
.	.	.	.	.	.	16a	.	16ff	.	.	.	.	.	.	.	.	.	.	.	16a	.	16ff	.
.	.	.	.	.	.	16b-JJ	.	16ggJJ	.	.	.	.	.	.	.	.	.	.	.	16b-JJ	.	16ggJJ	.
4C	ff	.	.	.	.	20ccLL	.	20aaLL	.	.	.	.	.	.	.	.	.	.	.	20ccLL	.	20aaLL	.
.	.	.	.	.	.	20dd	.	20bb-	.	.	.	.	.	.	.	.	.	.	.	20dd	.	20bb-	.
.	.	.	.	.	.	20ee	.	20ccc	.	.	.	.	.	.	.	.	.	.	.	20ee	.	20ccc	.
.	.	.	.	.	.	.	.	.	.	.	.	.	8c	.	ff	.	.	.	.	.	.	.	.
.	.	.	.	.	.	20dd	.	20ddd	.	.	.	.	.	.	.	.	.	.	.	20dd	.	20ddd	.
.	.	.	.	.	.	20ccJJ	[[	20eeeJJ	[[	.	.	.	.	.	.	.	.	.	.	20ccJJ	[[	20eeeJJ	[[
=	=	=	=	=	=	=	=	=	=	=	=	=	=	=	=	=	=	=	=	=	=	=	=
1F	.	1F	ff	2c	ff	4a	.	4fff	.	1r	1r	.	4F	4r	.	8r	.	1r	.	4a	ff	4fff	ff
.	.	.	.	.	.	.	.	.	.	.	.	.	.	.	.	8FL	ff	.	.	.	.	.	.
.	.	.	.	.	.	4g	.	4eee	.	.	.	.	4r	4ccc	.	8C	.	.	.	4cc	.	2.r	.
.	.	.	.	.	.	.	.	.	.	.	.	.	.	.	.	8FJ	.	.	.	.	.	.	.
.	.	.	.	[2f	.	4a	.	4ccc	.	.	.	.	2r	2r	.	8G	.	.	.	8aL	.	.	.
.	.	.	.	.	.	.	.	.	.	.	.	.	.	.	.	4A	.	.	.	8g	.	.	.
.	.	.	.	.	.	[4cc	.	4aa	.	.	.	.	.	.	.	.	.	.	.	8f	.	.	.
.	.	.	.	.	.	.	.	.	.	.	.	.	.	.	.	16GLL	.	.	.	8cJ	.	.	.
.	.	.	.	.	.	.	.	.	.	.	.	.	.	.	.	16AJJ	.	.	.	.	.	.	.
=	=	=	=	=	=	=	=	=	=	=	=	=	=	=	=	=	=	=	=	=	=	=	=
2.BB-	.	2.BB-	.	2f]	.	4cc]	.	4ddd	.	1r	1r	.	2B-:	2f: 2cc: 2dd: 2ff: 2bb-:	.	8B-L	.	1r	.	8dL	.	2r	.
.	.	.	.	.	.	.	.	.	.	.	.	.	.	.	.	8A	.	.	.	8f	.	.	.
.	.	.	.	.	.	2.b-	.	4ccc	.	.	.	.	.	.	.	8F	.	.	.	8b-	.	.	.
.	.	.	.	.	.	.	.	.	.	.	.	.	.	.	.	[8BB-J	.	.	.	8aJ	.	.	.
.	.	.	.	4d	.	.	.	4ff	.	.	.	.	4r	4r	.	4BB-]	.	.	.	4f	.	16bb-LL	.
.	.	.	.	.	.	.	.	.	.	.	.	.	.	.	.	.	.	.	.	.	.	16aa	.
.	.	.	.	.	.	.	.	.	.	.	.	.	.	.	.	.	.	.	.	.	.	16gg	.
.	.	.	.	.	.	.	.	.	.	.	.	.	.	.	.	.	.	.	.	.	.	16ffJJ	.
4C	.	4C	.	4e	.	.	.	4gg	.	.	.	.	4r	4r	.	8r	.	.	.	8gL	.	8eeL	.
.	.	.	.	.	.	.	.	.	.	.	.	.	.	.	.	8C	.	.	.	8b-J	.	16ffL	.
.	.	.	.	.	.	.	.	.	.	.	.	.	.	.	.	.	.	.	.	.	.	16ggJJ	.
=	=	=	=	=	=	=	=	=	=	=	=	=	=	=	=	=	=	=	=	=	=	=	=
1D	.	1D	.	4f	.	4a	.	4aa	.	1r	1r	.	2D:	2f: 2a: 2cc: 2ff: 2aa:	.	12DL	.	1r	.	2.a	.	4ff	.
.	.	.	.	.	.	.	.	.	.	.	.	.	.	.	.	12F	.	.	.	.	.	.	.
.	.	.	.	.	.	.	.	.	.	.	.	.	.	.	.	12AJ	.	.	.	.	.	.	.
.	.	.	.	4a	.	4dd	.	4fff	.	.	.	.	.	.	.	12dL	.	.	.	.	.	4r	.
.	.	.	.	.	.	.	.	.	.	.	.	.	.	.	.	12A	.	.	.	.	.	.	.
.	.	.	.	.	.	.	.	.	.	.	.	.	.	.	.	12FJ	.	.	.	.	.	.	.
.	.	.	.	4g	.	4cc	.	4eee	.	.	.	.	4r	4r	.	4D	.	.	.	.	.	16ddLL	.
.	.	.	.	.	.	.	.	.	.	.	.	.	.	.	.	.	.	.	.	.	.	16ee	.
.	.	.	.	.	.	.	.	.	.	.	.	.	.	.	.	.	.	.	.	.	.	16ff	.
.	.	.	.	.	.	.	.	.	.	.	.	.	.	.	.	.	.	.	.	.	.	16ggJJ	.
.	.	.	.	4f	.	[4a	.	4aa	.	.	.	.	4r	4r	.	8r	.	.	.	4r	.	8aaL	.
.	.	.	.	.	.	.	.	.	.	.	.	.	.	.	.	16FLL	.	.	.	.	.	8dddJ	.
.	.	.	.	.	.	.	.	.	.	.	.	.	.	.	.	16GJJ	.	.	.	.	.	.	.
=	=	=	=	=	=	=	=	=	=	=	=	=	=	=	=	=	=	=	=	=	=	=	=
1AA	.	1AA	.	2.e	.	2.a_	.	2ddd	.	1r	1r	.	2A:	2e: 2a: 2cc: 2ee: 2aa:	.	8A'L	.	2.r	.	2r	.	4.eee	.
.	.	.	.	.	.	.	.	.	.	.	.	.	.	.	.	8E'J	.	.	.	.	.	.	.
.	.	.	.	.	.	.	.	.	.	.	.	.	.	.	.	2AA	.	.	.	.	.	.	.
.	.	.	.	.	.	.	.	.	.	.	.	.	.	.	.	.	.	.	.	.	.	8dddL	.
.	.	.	.	.	.	.	.	4.ccc	.	.	.	.	2r	8r	.	.	.	.	.	4r	.	16cccL	.
.	.	.	.	.	.	.	.	.	.	.	.	.	.	.	.	.	.	.	.	.	.	16dddJJ	.
.	.	.	.	.	.	.	.	.	.	.	.	.	.	16r	.	.	.	.	.	.	.	4eee	.
.	.	.	.	.	.	.	.	.	.	.	.	.	.	16gg	.	.	.	.	.	.	.	.	.
.	.	.	.	4g	.	8a]	.	.	.	.	.	.	.	16aaLL	.	4r	.	8r	.	8r	.	.	.
.	.	.	.	.	.	.	.	.	.	.	.	.	.	16gg	.	.	.	.	.	.	.	.	.
.	.	.	.	.	.	8a	.	8ccc	.	.	.	.	.	16ff	.	.	.	8a	f	8cc	.	16cccLL	.
.	.	.	.	.	.	.	.	.	.	.	.	.	.	16eeJJ	.	.	.	.	.	.	.	16aaJJ	.
=	=	=	=	=	=	=	=	=	=	=	=	=	=	=	=	=	=	=	=	=	=	=	=
2.BB-	f	2.BB-	f	4f	f	4dd	f	4fff	f	1r	1r	.	2B-:	2d: 2f: 2cc: 2dd: 2ff:	f f	1r	.	8fL	.	4dd	f	4.ff	.
.	.	.	.	.	.	.	.	.	.	.	.	.	.	.	.	.	.	8g	.	.	.	.	.
.	.	.	.	4g	.	4cc	.	4eee	.	.	.	.	.	.	.	.	.	8b-	.	[4cc	.	.	.
.	.	.	.	.	.	.	.	.	.	.	.	.	.	.	.	.	.	8aJ	.	.	.	8r	.
.	.	.	.	4f	.	4a	.	4ccc	.	.	.	.	4r	4r	.	.	.	4f	.	8ccL]	.	2r	.
.	.	.	.	.	.	.	.	.	.	.	.	.	.	.	.	.	.	.	.	8dd	.	.	.
4AA	.	4AA	.	4c	.	4f	.	4aa	.	.	.	.	4r	8r	.	.	.	4a	.	8cc	.	.	.
.	.	.	.	.	.	.	.	.	.	.	.	.	.	16ddLL	.	.	.	.	.	8fJ	.	.	.
.	.	.	.	.	.	.	.	.	.	.	.	.	.	16eeJJ	.	.	.	.	.	.	.	.	.
=	=	=	=	=	=	=	=	=	=	=	=	=	=	=	=	=	=	=	=	=	=	=	=
1GG	.	1GG	.	2.d	.	4a	.	4ccc	.	1r	1r	.	2G:	2d: 2g: 2b-: 2dd: 2ff:	.	1r	.	12gL	.	4cc	.	1r	.
.	.	.	.	.	.	.	.	.	.	.	.	.	.	.	.	.	.	12b-	.	.	.	.	.
.	.	.	.	.	.	.	.	.	.	.	.	.	.	.	.	.	.	12ddJ	.	.	.	.	.
.	.	.	.	.	.	4g	.	4bb-	.	.	.	.	.	.	.	.	.	12ggL	.	4b-	.	.	.
.	.	.	.	.	.	.	.	.	.	.	.	.	.	.	.	.	.	12dd	.	.	.	.	.
.	.	.	.	.	.	.	.	.	.	.	.	.	.	.	.	.	.	12b-J	.	.	.	.	.
.	.	.	.	.	.	4b-	.	4ff	.	.	.	.	2r	8r	.	.	.	4g	.	8dL	.	.	.
.	.	.	.	.	.	.	.	.	.	.	.	.	.	16r	.	.	.	.	.	8b-	.	.	.
.	.	.	.	.	.	.	.	.	.	.	.	.	.	16ee	.	.	.	.	.	.	.	.	.
.	.	.	.	4e	.	4cc	.	4gg	.	.	.	.	.	16ddLL	.	.	.	8r	.	8a	.	.	.
.	.	.	.	.	.	.	.	.	.	.	.	.	.	16ee	.	.	.	.	.	.	.	.	.
.	.	.	.	.	.	.	.	.	.	.	.	.	.	16ff	.	.	.	16fLL	.	8gJ	.	.	.
.	.	.	.	.	.	.	.	.	.	.	.	.	.	16ggJJ	.	.	.	16eJJ	.	.	.	.	.
=	=	=	=	=	=	=	=	=	=	=	=	=	=	=	=	=	=	=	=	=	=	=	=
1D	.	1D	.	4f	.	4a	.	4aa	.	1r	1r	.	4D:	4f: 4a: 4dd: 4ff: 4aa:	.	1r	.	4.f	.	2a	.	1r	.
.	.	.	.	4A	.	4f	.	4ddd	.	.	.	.	4r	8r	.	.	.	.	.	.	.	.	.
.	.	.	.	.	.	.	.	.	.	.	.	.	.	8a	.	.	.	8e	.	.	.	.	.
.	.	.	.	4e	.	4g	.	4ccc	.	.	.	.	2r	8ffL	.	.	.	4d'	.	8r	.	.	.
.	.	.	.	.	.	.	.	.	.	.	.	.	.	8ee	.	.	.	.	.	16fLL	.	.	.
.	.	.	.	.	.	.	.	.	.	.	.	.	.	.	.	.	.	.	.	16gJJ	.	.	.
.	.	.	.	4f	.	4a	.	4ff	.	.	.	.	.	8dd	.	.	.	16dLL	.	8aL	.	.	.
.	.	.	.	.	.	.	.	.	.	.	.	.	.	.	.	.	.	16f	.	.	.	.	.
.	.	.	.	.	.	.	.	.	.	.	.	.	.	8ffJ	.	.	.	16a	.	8fJ	.	.	.
.	.	.	.	.	.	.	.	.	.	.	.	.	.	.	.	.	.	16b-JJ	.	.	.	.	.
=	=	=	=	=	=	=	=	=	=	=	=	=	=	=	=	=	=	=	=	=	=	=	=
1C	.	1C	.	2f	.	4g	.	[2.gg	.	1r	1r	.	4C:	4c: 4g: 4cc: 4ff: 4gg:	.	2r	.	2cc	.	8g'L	.	2.r	.
.	.	.	.	.	.	.	.	.	.	.	.	.	.	.	.	.	.	.	.	8g	.	.	.
.	.	.	.	.	.	2.cc	.	.	.	.	.	.	4r	4r	.	.	.	.	.	8a	.	.	.
.	.	.	.	.	.	.	.	.	.	.	.	.	.	.	.	.	.	.	.	8b-J	.	.	.
.	.	.	.	2e	.	.	.	.	.	.	.	.	4C:	4c: 4g: 4cc: 4ee: 4gg:	.	4G	f	8gL	.	8ccL	.	.	.
.	.	.	.	.	.	.	.	.	.	.	.	.	.	.	.	.	.	8e	.	8dd	.	.	.
.	.	.	.	.	.	.	.	8ggL]	.	.	.	.	4r	4r	.	4C	.	8g	.	8ee	.	8ggL	f
.	.	.	.	.	.	.	.	8ffJ	.	.	.	.	.	.	.	.	.	8ccJ	.	[8ffJ	.	8aaJ	.
=	=	=	=	=	=	=	=	=	=	=	=	=	=	=	=	=	=	=	=	=	=	=	=
4F~	.	4F~	.	4c~	.	4b-~	.	1ffZ	.	1r	1r	.	4r	4f	.	4F~	.	2b-	.	1ffZ]	.	2bb-	.
4F~	.	4F~	.	4c~	.	4b-~	.	.	.	.	.	.	2F	4r	.	4F~	.	.	.	.	.	.	.
2FFZ	.	2FFZ	.	2cZ	.	2aZ	.	.	.	.	.	.	.	4r	.	2FFZ	.	2aZ	.	.	.	2cccWZ	.
.	.	.	.	.	.	.	.	.	.	.	.	.	4rZ	4fffZ	.	.	.	.	.	.	.	.	.
==	==	==	==	==	==	==	==	==	==	==	==	==	==	==	==	==	==	==	==	==	==	==	==
*-	*-	*-	*-	*-	*-	*-	*-	*-	*-	*-	*-	*-	*-	*-	*-	*-	*-	*-	*-	*-	*-	*-	*-
!!!system-decoration: [(s1,s2,s3,s4)]{(s5,s6)}[(s7,s8)][(s9,s10,s11,s12,s13)]
!!!YEM: Copyright by Tomasz Kozubek. All rights reserved
!!!RDF**kern: Z = caesura
